;FLAVOR:Marlin
;TIME:118
;Filament used: 0.0309303m
;Layer height: 0.2
;MINX:103.2
;MINY:105.084
;MINZ:0.2
;MAXX:116.8
;MAXY:114.917
;MAXZ:4.6
;Generated with Cura_SteamEngine 4.13.0
M140 S64
M105
M190 S64
M104 S205
M105
M109 S205
M82 ;absolute extrusion mode
G28 ; Home all axes
G92 E0 ; Reset extruder position
G1 Z2.0 F3000 ; Move Z to prevent scratching
G1 X0 Y0 F1500 ; Move to front-left corner
G1 Z0.3 ; Baja la boquilla a la altura de impresión inicial
G1 F200 E10 ; Extruye 10 mm de filamento para purgar
G92 E0 ; Reset extruder position again
G1 F200 E3 ; Prime extruder
G92 E0 ; Reset extruder once more
G92 E0
G92 E0
G1 F1800 E-5
;LAYER_COUNT:18
;LAYER:0
M107
G1 F600 Z1.2
G0 F2266.7 X104.313 Y106.08 Z1.2
;TYPE:SKIRT
G1 F600 Z0.2
G1 F1800 E0
G1 F1020 X104.709 Y105.741 E0.01734
G1 X105.151 Y105.466 E0.03465
G1 X105.631 Y105.262 E0.052
G1 X106.136 Y105.134 E0.06933
G1 X106.717 Y105.084 E0.08872
G1 X113.283 Y105.084 E0.30711
G1 X113.803 Y105.124 E0.32445
G1 X114.31 Y105.243 E0.34178
G1 X114.793 Y105.438 E0.3591
G1 X115.241 Y105.704 E0.37643
G1 X115.687 Y106.08 E0.39583
G1 X115.804 Y106.197 E0.40133
G1 X116.143 Y106.593 E0.41867
G1 X116.418 Y107.035 E0.43599
G1 X116.622 Y107.515 E0.45333
G1 X116.75 Y108.02 E0.47066
G1 X116.8 Y108.601 E0.49006
G1 X116.8 Y111.4 E0.58315
G1 X116.76 Y111.92 E0.6005
G1 X116.641 Y112.427 E0.61782
G1 X116.446 Y112.91 E0.63514
G1 X116.18 Y113.358 E0.65247
G1 X115.804 Y113.804 E0.67188
G1 X115.687 Y113.921 E0.67738
G1 X115.291 Y114.26 E0.69472
G1 X114.849 Y114.535 E0.71203
G1 X114.369 Y114.739 E0.72938
G1 X113.864 Y114.867 E0.7467
G1 X113.282 Y114.917 E0.76613
G1 X106.716 Y114.916 E0.98452
G1 X106.197 Y114.876 E1.00183
G1 X105.689 Y114.757 E1.01919
G1 X105.206 Y114.562 E1.03651
G1 X104.758 Y114.295 E1.05386
G1 X104.313 Y113.92 E1.07321
G1 X104.196 Y113.803 E1.07872
G1 X103.857 Y113.407 E1.09605
G1 X103.582 Y112.965 E1.11337
G1 X103.378 Y112.485 E1.13071
G1 X103.25 Y111.98 E1.14804
G1 X103.2 Y111.399 E1.16744
G1 X103.2 Y108.601 E1.2605
G1 X103.24 Y108.081 E1.27785
G1 X103.359 Y107.574 E1.29517
G1 X103.554 Y107.091 E1.31249
G1 X103.82 Y106.643 E1.32982
G1 X104.196 Y106.197 E1.34922
G1 X104.313 Y106.08 E1.35473
G0 F2266.7 X104.596 Y106.363
G1 F1020 X104.969 Y106.046 E1.37101
G1 X105.389 Y105.794 E1.3873
G1 X105.844 Y105.614 E1.40357
G1 X106.322 Y105.51 E1.41984
G1 X106.717 Y105.484 E1.43301
G1 X113.283 Y105.484 E1.6514
G1 X113.771 Y105.524 E1.66768
G1 X114.246 Y105.643 E1.68397
G1 X114.695 Y105.837 E1.70024
G1 X115.107 Y106.102 E1.71653
G1 X115.521 Y106.48 E1.73517
G1 X115.838 Y106.853 E1.75146
G1 X116.09 Y107.273 E1.76775
G1 X116.27 Y107.728 E1.78402
G1 X116.374 Y108.206 E1.80029
G1 X116.4 Y108.601 E1.81346
G1 X116.4 Y111.4 E1.90655
G1 X116.36 Y111.888 E1.92284
G1 X116.241 Y112.363 E1.93912
G1 X116.047 Y112.812 E1.95539
G1 X115.782 Y113.224 E1.97169
G1 X115.404 Y113.638 E1.99033
G1 X115.031 Y113.955 E2.00661
G1 X114.611 Y114.207 E2.0229
G1 X114.156 Y114.387 E2.03918
G1 X113.678 Y114.491 E2.05545
G1 X113.283 Y114.517 E2.06861
G1 X106.717 Y114.516 E2.287
G1 X106.229 Y114.476 E2.30329
G1 X105.754 Y114.357 E2.31957
G1 X105.305 Y114.163 E2.33584
G1 X104.893 Y113.898 E2.35213
G1 X104.479 Y113.52 E2.37078
G1 X104.162 Y113.147 E2.38706
G1 X103.91 Y112.727 E2.40335
G1 X103.73 Y112.272 E2.41963
G1 X103.626 Y111.794 E2.4359
G1 X103.6 Y111.399 E2.44906
G1 X103.6 Y108.601 E2.54212
G1 X103.64 Y108.113 E2.55841
G1 X103.759 Y107.638 E2.5747
G1 X103.953 Y107.189 E2.59096
G1 X104.218 Y106.777 E2.60726
G1 X104.596 Y106.363 E2.6259
G0 F2266.7 X104.762 Y106.763
G1 F1020 X105.228 Y106.353 E2.64655
G1 X105.623 Y106.126 E2.6617
G1 X106.051 Y105.971 E2.67684
G1 X106.717 Y105.884 E2.69918
G1 X113.283 Y105.884 E2.91757
G1 X113.737 Y105.924 E2.93272
G1 X114.177 Y106.042 E2.94788
G1 X114.589 Y106.236 E2.96302
G1 X115.121 Y106.646 E2.98536
G1 X115.531 Y107.112 E3.00601
G1 X115.758 Y107.507 E3.02116
G1 X115.913 Y107.935 E3.0363
G1 X116 Y108.601 E3.05864
G1 X116 Y111.4 E3.15173
G1 X115.96 Y111.854 E3.16689
G1 X115.842 Y112.294 E3.18204
G1 X115.648 Y112.706 E3.19719
G1 X115.238 Y113.238 E3.21953
G1 X114.772 Y113.648 E3.24017
G1 X114.377 Y113.875 E3.25533
G1 X113.949 Y114.03 E3.27047
G1 X113.283 Y114.117 E3.29281
G1 X106.717 Y114.116 E3.51119
G1 X106.263 Y114.076 E3.52635
G1 X105.823 Y113.957 E3.54151
G1 X105.41 Y113.764 E3.55667
G1 X104.879 Y113.354 E3.57899
G1 X104.469 Y112.888 E3.59963
G1 X104.242 Y112.493 E3.61478
G1 X104.087 Y112.065 E3.62992
G1 X104 Y111.399 E3.65226
G1 X104 Y108.601 E3.74532
G1 X104.04 Y108.147 E3.76048
G1 X104.158 Y107.707 E3.77563
G1 X104.352 Y107.295 E3.79078
G1 X104.762 Y106.763 E3.81312
G0 F2266.7 X105.161 Y106.928
G1 F1020 X105.485 Y106.662 E3.82706
G1 X105.852 Y106.461 E3.84098
G1 X106.252 Y106.334 E3.85494
G1 X106.717 Y106.284 E3.87049
G1 X113.283 Y106.284 E4.08888
G1 X113.7 Y106.324 E4.10281
G1 X114.102 Y106.442 E4.11675
G1 X114.474 Y106.635 E4.13069
G1 X114.956 Y107.045 E4.15173
G1 X115.222 Y107.369 E4.16568
G1 X115.423 Y107.736 E4.17959
G1 X115.55 Y108.136 E4.19355
G1 X115.6 Y108.601 E4.20911
G1 X115.6 Y111.4 E4.3022
G1 X115.56 Y111.817 E4.31614
G1 X115.442 Y112.219 E4.33007
G1 X115.249 Y112.591 E4.34401
G1 X114.839 Y113.073 E4.36506
G1 X114.515 Y113.339 E4.379
G1 X114.148 Y113.54 E4.39292
G1 X113.748 Y113.667 E4.40687
G1 X113.283 Y113.717 E4.42243
G1 X106.717 Y113.716 E4.64082
G1 X106.3 Y113.676 E4.65475
G1 X105.898 Y113.558 E4.66868
G1 X105.525 Y113.365 E4.68265
G1 X105.044 Y112.955 E4.70367
G1 X104.778 Y112.631 E4.71762
G1 X104.577 Y112.264 E4.73153
G1 X104.45 Y111.864 E4.74549
G1 X104.4 Y111.399 E4.76105
G1 X104.4 Y108.601 E4.85411
G1 X104.44 Y108.184 E4.86804
G1 X104.558 Y107.782 E4.88198
G1 X104.751 Y107.41 E4.89592
G1 X105.161 Y106.928 E4.91696
G0 F2266.7 X105.444 Y107.211
G1 F1020 X105.739 Y106.973 E4.92957
G1 X106.077 Y106.802 E4.94217
G1 X106.443 Y106.705 E4.95476
G1 X106.717 Y106.684 E4.9639
G1 X113.283 Y106.684 E5.18229
G1 X113.66 Y106.724 E5.1949
G1 X114.02 Y106.842 E5.2075
G1 X114.347 Y107.032 E5.22008
G1 X114.673 Y107.328 E5.23472
G1 X114.911 Y107.623 E5.24733
G1 X115.082 Y107.961 E5.25993
G1 X115.179 Y108.327 E5.27252
G1 X115.2 Y108.601 E5.28166
G1 X115.2 Y111.4 E5.37476
G1 X115.16 Y111.777 E5.38737
G1 X115.042 Y112.137 E5.39997
G1 X114.852 Y112.464 E5.41254
G1 X114.556 Y112.79 E5.42719
G1 X114.261 Y113.028 E5.4398
G1 X113.923 Y113.199 E5.4524
G1 X113.557 Y113.296 E5.46499
G1 X113.283 Y113.317 E5.47413
G1 X106.717 Y113.316 E5.69251
G1 X106.34 Y113.276 E5.70512
G1 X105.98 Y113.158 E5.71772
G1 X105.652 Y112.967 E5.73035
G1 X105.327 Y112.672 E5.74495
G1 X105.089 Y112.377 E5.75755
G1 X104.918 Y112.039 E5.77015
G1 X104.821 Y111.673 E5.78275
G1 X104.8 Y111.399 E5.79189
G1 X104.8 Y108.601 E5.88495
G1 X104.84 Y108.224 E5.89756
G1 X104.958 Y107.864 E5.91016
G1 X105.148 Y107.537 E5.92274
G1 X105.444 Y107.211 E5.93738
G0 F2266.7 X105.727 Y107.494
G1 F1020 X105.99 Y107.288 E5.94849
G1 X106.294 Y107.149 E5.95961
G1 X106.717 Y107.084 E5.97385
G1 X113.283 Y107.084 E6.19223
G1 X113.615 Y107.124 E6.20335
G1 X113.927 Y107.241 E6.21444
G1 X114.39 Y107.611 E6.23415
G1 X114.596 Y107.874 E6.24526
G1 X114.735 Y108.178 E6.25638
G1 X114.8 Y108.601 E6.27061
G1 X114.8 Y111.4 E6.36371
G1 X114.76 Y111.732 E6.37483
G1 X114.643 Y112.044 E6.38591
G1 X114.273 Y112.507 E6.40563
G1 X114.01 Y112.713 E6.41674
G1 X113.706 Y112.852 E6.42785
G1 X113.283 Y112.917 E6.44209
G1 X106.717 Y112.916 E6.66048
G1 X106.385 Y112.876 E6.6716
G1 X106.072 Y112.759 E6.68271
G1 X105.61 Y112.389 E6.7024
G1 X105.404 Y112.126 E6.71351
G1 X105.265 Y111.822 E6.72463
G1 X105.2 Y111.399 E6.73886
G1 X105.2 Y108.601 E6.83192
G1 X105.24 Y108.269 E6.84305
G1 X105.357 Y107.957 E6.85413
G1 X105.727 Y107.494 E6.87384
G0 F2266.7 X106.01 Y107.777
G1 F1020 X106.236 Y107.608 E6.88323
G1 X106.5 Y107.508 E6.89262
G1 X106.717 Y107.484 E6.89988
G1 X113.283 Y107.484 E7.11826
G1 X113.562 Y107.524 E7.12764
G1 X113.819 Y107.64 E7.13702
G1 X114.107 Y107.894 E7.14979
G1 X114.276 Y108.12 E7.15917
G1 X114.376 Y108.384 E7.16856
G1 X114.4 Y108.601 E7.17583
G1 X114.4 Y111.4 E7.26892
G1 X114.36 Y111.679 E7.2783
G1 X114.244 Y111.936 E7.28767
G1 X113.99 Y112.224 E7.30045
G1 X113.764 Y112.393 E7.30983
G1 X113.5 Y112.493 E7.31922
G1 X113.283 Y112.517 E7.32648
G1 X106.717 Y112.516 E7.54487
G1 X106.438 Y112.476 E7.55424
G1 X106.18 Y112.36 E7.56365
G1 X105.893 Y112.106 E7.5764
G1 X105.724 Y111.88 E7.58578
G1 X105.624 Y111.616 E7.59517
G1 X105.6 Y111.399 E7.60244
G1 X105.6 Y108.601 E7.6955
G1 X105.64 Y108.322 E7.70487
G1 X105.756 Y108.065 E7.71425
G1 X106.01 Y107.777 E7.72702
G0 F2266.7 X106.293 Y108.06
G1 F1020 X106.472 Y107.936 E7.73426
G1 X106.717 Y107.884 E7.7426
G1 X113.283 Y107.884 E7.96098
G1 X113.498 Y107.924 E7.96825
G1 X113.824 Y108.177 E7.98198
G1 X113.948 Y108.356 E7.98922
G1 X114 Y108.601 E7.99755
G1 X114 Y111.4 E8.09065
G1 X113.96 Y111.615 E8.09792
G1 X113.707 Y111.941 E8.11165
G1 X113.528 Y112.065 E8.11889
G1 X113.283 Y112.117 E8.12722
G1 X106.717 Y112.116 E8.34561
G1 X106.502 Y112.076 E8.35288
G1 X106.176 Y111.823 E8.3666
G1 X106.052 Y111.644 E8.37385
G1 X106 Y111.399 E8.38218
G1 X106 Y108.601 E8.47524
G1 X106.04 Y108.386 E8.48251
G1 X106.293 Y108.06 E8.49624
G0 F2266.7 X106.576 Y108.343
G1 F1020 X106.717 Y108.284 E8.50132
G1 X113.283 Y108.284 E8.71971
G1 X113.424 Y108.343 E8.72479
G1 X113.541 Y108.46 E8.73029
G1 X113.6 Y108.601 E8.73538
G1 X113.6 Y111.4 E8.82847
G1 X113.541 Y111.541 E8.83356
G1 X113.424 Y111.658 E8.83906
G1 X113.283 Y111.717 E8.84414
G1 X106.717 Y111.716 E9.06253
G1 X106.576 Y111.657 E9.06761
G1 X106.459 Y111.54 E9.07312
G1 X106.4 Y111.399 E9.0782
G1 X106.4 Y108.601 E9.17126
G1 X106.459 Y108.46 E9.17635
G1 X106.576 Y108.343 E9.18185
G1 F1800 E4.18185
G1 F600 Z1.2
;MESH:PosicionadorCobre.stl
G0 F2266.7 X113.2 Y108.684 Z1.2
;TYPE:WALL-OUTER
G1 F600 Z0.2
G1 F1800 E9.18185
G1 F1020 X113.2 Y111.317 E9.26942
G1 X106.8 Y111.316 E9.48229
G1 X106.8 Y108.684 E9.56983
G1 X113.2 Y108.684 E9.78269
G0 F2266.7 X113.2 Y108.884
G0 X112.8 Y109.084
;TYPE:WALL-INNER
G1 F1020 X112.8 Y110.917 E9.84366
G1 X107.2 Y110.916 E10.02992
G1 X107.2 Y109.084 E10.09085
G1 X112.8 Y109.084 E10.27711
G0 F2266.7 X112.41 Y109.474
M104 S200
;TYPE:SKIN
G1 F1020 X112.41 Y110.527 E10.31213
G1 X107.59 Y110.526 E10.47244
G1 X107.59 Y109.474 E10.50743
G1 X112.41 Y109.474 E10.66775
G0 F2266.7 X112.229 Y109.966
G1 F1020 X111.916 Y109.653 E10.68247
G0 F2266.7 X111.35 Y109.653
G1 F1020 X112.043 Y110.346 E10.71506
G0 F2266.7 X111.477 Y110.346
G1 F1020 X110.785 Y109.653 E10.74764
G0 F2266.7 X110.219 Y109.653
G1 F1020 X110.911 Y110.346 E10.78021
G0 F2266.7 X110.346 Y110.346
G1 F1020 X109.653 Y109.653 E10.81281
G0 F2266.7 X109.088 Y109.653
G1 F1020 X109.779 Y110.345 E10.84533
G0 F2266.7 X109.214 Y110.345
G1 F1020 X108.522 Y109.653 E10.87788
G0 F2266.7 X107.956 Y109.653
G1 F1020 X108.648 Y110.345 E10.91043
G0 F2266.7 X108.082 Y110.345
G1 F1020 X107.769 Y110.032 E10.92516
G1 F1800 E5.92516
G1 F600 Z1.2
;MESH:NONMESH
G0 F2266.7 X112.8 Y109.104 Z1.2
;TIME_ELAPSED:26.630221
;LAYER:1
M140 S62
M106 S23.2
;MESH:PosicionadorCobre.stl
G0 F4133.3 X112.8 Y109.104 Z1.4
;TYPE:WALL-INNER
G1 F600 Z0.4
G1 F1800 E10.92516
G1 F941.8 X112.8 Y110.897 E10.98479
G1 X107.2 Y110.896 E11.17105
G1 X107.2 Y109.104 E11.23065
G1 X112.8 Y109.104 E11.41691
G0 F4133.3 X113.2 Y108.704
;TYPE:WALL-OUTER
G1 F600 X113.2 Y111.297 E11.50315
G1 X106.8 Y111.296 E11.71601
G1 X106.8 Y108.704 E11.80222
G1 X113.2 Y108.704 E12.01509
G0 F4133.3 X113.2 Y108.904
G1 F1800 E7.01509
G1 F600 Z1.4
G0 F4133.3 X112.41 Y109.494 Z1.4
;TYPE:SKIN
G1 F600 Z0.4
G1 F1800 E12.01509
G1 F600 X112.41 Y110.507 E12.04878
G1 X107.59 Y110.506 E12.2091
G1 X107.59 Y109.494 E12.24276
G1 X112.41 Y109.494 E12.40307
G0 F4133.3 X112.229 Y110.085
G1 F600 X111.987 Y110.327 E12.41445
G0 F4133.3 X111.421 Y110.327
G1 F600 X112.075 Y109.673 E12.44521
G0 F4133.3 X111.509 Y109.673
G1 F600 X110.855 Y110.327 E12.47598
G0 F4133.3 X110.29 Y110.327
G1 F600 X110.943 Y109.673 E12.50672
G0 F4133.3 X110.377 Y109.673
G1 F600 X109.725 Y110.326 E12.53741
G0 F4133.3 X109.159 Y110.326
G1 F600 X109.812 Y109.673 E12.56812
G0 F4133.3 X109.246 Y109.673
G1 F600 X108.593 Y110.326 E12.59884
G0 F4133.3 X108.028 Y110.326
G1 F600 X108.68 Y109.673 E12.62953
G0 F4133.3 X108.115 Y109.673
G1 F600 X107.77 Y110.018 E12.64576
G1 F1800 E7.64576
G1 F600 Z1.4
;MESH:NONMESH
G0 F4133.3 X112.8 Y109.124 Z1.4
;TIME_ELAPSED:32.987519
;LAYER:2
M106 S46.4
;MESH:PosicionadorCobre.stl
G0 F6000 X112.8 Y109.124 Z1.6
;TYPE:WALL-INNER
G1 F600 Z0.6
G1 F1800 E12.64576
G1 F1200 X112.8 Y110.877 E12.70406
G1 X107.2 Y110.876 E12.89032
G1 X107.2 Y109.124 E12.94859
G1 X112.8 Y109.124 E13.13485
G0 F6000 X113.2 Y108.724
;TYPE:WALL-OUTER
G1 F600 X113.2 Y111.277 E13.21976
G1 X106.8 Y111.276 E13.43262
G1 X106.8 Y108.724 E13.5175
G1 X113.2 Y108.724 E13.73037
G0 F6000 X113.2 Y108.924
G1 F1800 E8.73037
G1 F600 Z1.6
G0 F6000 X112.41 Y109.514 Z1.6
;TYPE:SKIN
G1 F600 Z0.6
G1 F1800 E13.73037
G1 F600 X112.41 Y110.487 E13.76273
G1 X107.59 Y110.486 E13.92305
G1 X107.59 Y109.514 E13.95537
G1 X112.41 Y109.514 E14.11569
G0 F6000 X112.229 Y109.966
G1 F600 X111.956 Y109.693 E14.12853
G0 F6000 X111.39 Y109.693
G1 F600 X112.003 Y110.306 E14.15736
G0 F6000 X111.437 Y110.306
G1 F600 X110.824 Y109.693 E14.1862
G0 F6000 X110.259 Y109.693
G1 F600 X110.872 Y110.306 E14.21503
G0 F6000 X110.306 Y110.306
G1 F600 X109.693 Y109.693 E14.24386
G0 F6000 X109.127 Y109.693
G1 F600 X109.74 Y110.305 E14.27267
G0 F6000 X109.174 Y110.305
G1 F600 X108.562 Y109.693 E14.30146
G0 F6000 X107.996 Y109.693
G1 F600 X108.608 Y110.305 E14.33025
G0 F6000 X108.043 Y110.305
G1 F600 X107.77 Y110.032 E14.34309
G1 F1800 E9.34309
G1 F600 Z1.6
;MESH:NONMESH
G0 F6000 X112.8 Y109.144 Z1.6
;TIME_ELAPSED:39.079071
;LAYER:3
M106 S69.5
;MESH:PosicionadorCobre.stl
G0 X112.8 Y109.144 Z1.8
;TYPE:WALL-INNER
G1 F600 Z0.8
G1 F1800 E14.34309
G1 F1200 X112.8 Y110.857 E14.40006
G1 X107.2 Y110.856 E14.58632
G1 X107.2 Y109.144 E14.64326
G1 X112.8 Y109.144 E14.82952
G0 F6000 X113.2 Y108.744
;TYPE:WALL-OUTER
G1 F600 X113.2 Y111.257 E14.9131
G1 X106.8 Y111.256 E15.12597
G1 X106.8 Y108.744 E15.20951
G1 X113.2 Y108.744 E15.42238
G0 F6000 X113.2 Y108.944
G1 F1800 E10.42238
G1 F600 Z1.8
G0 F6000 X112.41 Y109.534 Z1.8
;TYPE:SKIN
G1 F600 Z0.8
G1 F1800 E15.42238
G1 F600 X112.41 Y110.467 E15.45341
G1 X107.59 Y110.466 E15.61372
G1 X107.59 Y109.534 E15.64472
G1 X112.41 Y109.534 E15.80504
G0 F6000 X112.229 Y110.085
G1 F600 X112.026 Y110.287 E15.81456
G0 F6000 X111.461 Y110.287
G1 F600 X112.035 Y109.713 E15.84156
G0 F6000 X111.469 Y109.713
G1 F600 X110.895 Y110.287 E15.86856
G0 F6000 X110.33 Y110.286
G1 F600 X110.904 Y109.713 E15.89554
G0 F6000 X110.338 Y109.713
G1 F600 X109.764 Y110.286 E15.92251
G0 F6000 X109.199 Y110.286
G1 F600 X109.772 Y109.713 E15.94946
G0 F6000 X109.206 Y109.713
G1 F600 X108.634 Y110.286 E15.97639
G0 F6000 X108.068 Y110.286
G1 F600 X108.641 Y109.713 E16.00335
G0 F6000 X108.075 Y109.713
G1 F600 X107.77 Y110.018 E16.01769
G1 F1800 E11.01769
G1 F600 Z1.8
;MESH:NONMESH
G0 F6000 X112.8 Y109.164 Z1.8
;TIME_ELAPSED:45.107910
;LAYER:4
M106 S92.7
;MESH:PosicionadorCobre.stl
G0 X112.8 Y109.164 Z2
;TYPE:WALL-INNER
G1 F600 Z1
G1 F1800 E16.01769
G1 F1200 X112.8 Y110.837 E16.07334
G1 X107.2 Y110.836 E16.25959
G1 X107.2 Y109.164 E16.3152
G1 X112.8 Y109.164 E16.50146
G0 F6000 X113.2 Y108.764
;TYPE:WALL-OUTER
G1 F600 X113.2 Y111.237 E16.58371
G1 X106.8 Y111.236 E16.79658
G1 X106.8 Y108.764 E16.8788
G1 X113.2 Y108.764 E17.09166
G0 F6000 X113.2 Y108.964
G1 F1800 E12.09166
G1 F600 Z2
G0 F6000 X112.41 Y109.554 Z2
;TYPE:SKIN
G1 F600 Z1
G1 F1800 E17.09166
G1 F600 X112.41 Y110.447 E17.12136
G1 X107.59 Y110.446 E17.28168
G1 X107.59 Y109.554 E17.31134
G1 X112.41 Y109.554 E17.47166
G0 F6000 X112.229 Y109.967
G1 F600 X111.997 Y109.734 E17.48259
G0 F6000 X111.963 Y110.266
G1 F600 X111.431 Y109.734 E17.50762
G0 F6000 X111.397 Y110.266
G1 F600 X110.865 Y109.734 E17.53264
G0 F6000 X110.831 Y110.266
G1 F600 X110.3 Y109.734 E17.55764
G0 F6000 X110.265 Y110.265
G1 F600 X109.733 Y109.733 E17.58267
G0 F6000 X109.699 Y110.265
G1 F600 X109.168 Y109.733 E17.60767
G0 F6000 X109.133 Y110.264
