;FLAVOR:Marlin
;TIME:1318
;Filament used: 0.912795m
;Layer height: 0.2
;MINX:100.65
;MINY:64.9
;MINZ:0.2
;MAXX:119.35
;MAXY:155.1
;MAXZ:3
;Generated with Cura_SteamEngine 4.13.0
M140 S64
M105
M190 S64
M104 S205
M105
M109 S205
M82 ;absolute extrusion mode
G28 ; Home all axes
G92 E0 ; Reset extruder position
G1 Z2.0 F3000 ; Move Z to prevent scratching
G1 X0 Y0 F1500 ; Move to front-left corner
G1 Z0.3 ; Baja la boquilla a la altura de impresión inicial
G1 F200 E10 ; Extruye 10 mm de filamento para purgar
G92 E0 ; Reset extruder position again
G1 F200 E3 ; Prime extruder
G92 E0 ; Reset extruder once more
G92 E0
G92 E0
G1 F1800 E-5
;LAYER_COUNT:10
;LAYER:0
M107
G1 F600 Z1.2
G0 F2266.7 X102.025 Y68.143 Z1.2
;TYPE:SKIRT
G1 F600 Z0.2
G1 F1800 E0
G1 F1020 X102.187 Y67.92 E0.00917
G1 X102.519 Y67.511 E0.02669
G1 X103.046 Y66.963 E0.05198
G1 X103.255 Y66.774 E0.06135
G1 X103.683 Y66.428 E0.07965
G1 X103.906 Y66.267 E0.0888
G1 X104.345 Y65.983 E0.10619
G1 X104.578 Y65.849 E0.11513
G1 X105.04 Y65.614 E0.13237
G1 X105.291 Y65.502 E0.14151
G1 X105.783 Y65.314 E0.15903
G1 X106.035 Y65.232 E0.16784
G1 X106.533 Y65.098 E0.185
G1 X106.807 Y65.04 E0.19431
G1 X107.331 Y64.958 E0.21195
G1 X107.599 Y64.93 E0.22092
G1 X108.124 Y64.903 E0.2384
G1 X108.259 Y64.9 E0.24289
G1 X111.775 Y64.901 E0.35983
G1 X112.403 Y64.931 E0.38075
G1 X112.667 Y64.958 E0.38957
G1 X113.192 Y65.04 E0.40724
G1 X113.469 Y65.099 E0.41666
G1 X113.976 Y65.236 E0.43413
G1 X114.229 Y65.318 E0.44298
G1 X114.722 Y65.507 E0.46054
G1 X114.976 Y65.621 E0.4698
G1 X115.437 Y65.857 E0.48702
G1 X115.674 Y65.994 E0.49613
G1 X116.112 Y66.28 E0.51353
G1 X116.324 Y66.435 E0.52226
G1 X116.741 Y66.772 E0.54009
G1 X116.948 Y66.958 E0.54935
G1 X117.302 Y67.313 E0.56603
G1 X117.482 Y67.514 E0.575
G1 X117.821 Y67.933 E0.59293
G1 X117.983 Y68.156 E0.60209
G1 X118.267 Y68.595 E0.61948
G1 X118.401 Y68.828 E0.62842
G1 X118.636 Y69.29 E0.64566
G1 X118.748 Y69.541 E0.6548
G1 X118.936 Y70.033 E0.67232
G1 X119.018 Y70.285 E0.68114
G1 X119.152 Y70.783 E0.69829
G1 X119.21 Y71.057 E0.7076
G1 X119.292 Y71.581 E0.72524
G1 X119.319 Y71.848 E0.73417
G1 X119.346 Y72.366 E0.75142
G1 X119.35 Y72.501 E0.75591
G1 X119.35 Y147.498 E3.25033
G1 X119.346 Y147.636 E3.25492
G1 X119.318 Y148.164 E3.2725
G1 X119.29 Y148.43 E3.2814
G1 X119.209 Y148.945 E3.29874
G1 X119.151 Y149.219 E3.30805
G1 X119.014 Y149.726 E3.32552
G1 X118.932 Y149.979 E3.33437
G1 X118.743 Y150.472 E3.35193
G1 X118.629 Y150.726 E3.36119
G1 X118.393 Y151.187 E3.37841
G1 X118.26 Y151.418 E3.38728
G1 X117.975 Y151.857 E3.40469
G1 X117.813 Y152.08 E3.41386
G1 X117.481 Y152.489 E3.43138
G1 X116.954 Y153.037 E3.45666
G1 X116.745 Y153.226 E3.46604
G1 X116.317 Y153.572 E3.48434
G1 X116.094 Y153.733 E3.49349
G1 X115.655 Y154.017 E3.51088
G1 X115.422 Y154.151 E3.51982
G1 X114.96 Y154.386 E3.53706
G1 X114.709 Y154.498 E3.5462
G1 X114.217 Y154.686 E3.56372
G1 X113.965 Y154.768 E3.57253
G1 X113.467 Y154.902 E3.58968
G1 X113.193 Y154.96 E3.599
G1 X112.669 Y155.042 E3.61664
G1 X112.402 Y155.07 E3.62557
G1 X111.882 Y155.097 E3.64289
G1 X111.747 Y155.1 E3.64738
G1 X108.252 Y155.1 E3.76362
G1 X108.114 Y155.096 E3.76822
G1 X107.586 Y155.068 E3.7858
G1 X107.32 Y155.04 E3.7947
G1 X106.805 Y154.959 E3.81204
G1 X106.531 Y154.901 E3.82135
G1 X106.024 Y154.764 E3.83882
G1 X105.771 Y154.682 E3.84767
G1 X105.278 Y154.493 E3.86523
G1 X105.024 Y154.379 E3.87449
G1 X104.563 Y154.143 E3.89171
G1 X104.326 Y154.006 E3.90082
G1 X103.888 Y153.72 E3.91822
G1 X103.676 Y153.565 E3.92695
G1 X103.259 Y153.228 E3.94478
G1 X103.052 Y153.042 E3.95404
G1 X102.698 Y152.687 E3.97071
G1 X102.518 Y152.486 E3.97969
G1 X102.179 Y152.067 E3.99761
G1 X102.017 Y151.844 E4.00678
G1 X101.733 Y151.405 E4.02417
G1 X101.599 Y151.172 E4.03311
G1 X101.364 Y150.71 E4.05035
G1 X101.252 Y150.459 E4.05949
G1 X101.064 Y149.967 E4.07701
G1 X100.982 Y149.715 E4.08582
G1 X100.848 Y149.217 E4.10298
G1 X100.79 Y148.943 E4.11229
G1 X100.708 Y148.419 E4.12993
G1 X100.68 Y148.151 E4.1389
G1 X100.653 Y147.627 E4.15635
G1 X100.65 Y147.493 E4.1608
G1 X100.651 Y72.476 E6.65588
G1 X100.655 Y72.336 E6.66054
G1 X100.682 Y71.835 E6.67723
G1 X100.709 Y71.572 E6.68602
G1 X100.79 Y71.056 E6.70339
G1 X100.849 Y70.781 E6.71275
G1 X100.986 Y70.274 E6.73021
G1 X101.068 Y70.021 E6.73906
G1 X101.257 Y69.528 E6.75662
G1 X101.371 Y69.274 E6.76588
G1 X101.607 Y68.813 E6.78311
G1 X101.74 Y68.582 E6.79197
G1 X102.025 Y68.143 E6.80938
G0 F2266.7 X102.361 Y68.361
G1 F1020 X102.498 Y68.172 E6.81714
G1 X102.83 Y67.763 E6.83466
G1 X103.33 Y67.245 E6.85861
G1 X103.507 Y67.085 E6.86655
G1 X103.935 Y66.739 E6.88485
G1 X104.123 Y66.603 E6.89257
G1 X104.562 Y66.319 E6.90996
G1 X104.76 Y66.205 E6.91756
G1 X105.222 Y65.97 E6.9348
G1 X105.434 Y65.876 E6.94251
G1 X105.926 Y65.688 E6.96003
G1 X106.139 Y65.619 E6.96748
G1 X106.637 Y65.485 E6.98463
G1 X106.869 Y65.435 E6.99252
G1 X107.393 Y65.353 E7.01016
G1 X107.62 Y65.33 E7.01775
G1 X108.145 Y65.303 E7.03524
G1 X108.259 Y65.3 E7.03903
G1 X111.775 Y65.301 E7.15597
G1 X112.382 Y65.33 E7.17618
G1 X112.606 Y65.353 E7.18367
G1 X113.131 Y65.435 E7.20135
G1 X113.365 Y65.485 E7.2093
G1 X113.872 Y65.622 E7.22677
G1 X114.086 Y65.692 E7.23426
G1 X114.579 Y65.881 E7.25182
G1 X114.794 Y65.977 E7.25965
G1 X115.255 Y66.213 E7.27688
G1 X115.455 Y66.329 E7.28457
G1 X115.893 Y66.615 E7.30197
G1 X116.073 Y66.746 E7.30937
G1 X116.49 Y67.083 E7.3272
G1 X116.665 Y67.241 E7.33505
G1 X117.019 Y67.596 E7.35172
G1 X117.171 Y67.765 E7.35928
G1 X117.51 Y68.184 E7.37721
G1 X117.647 Y68.373 E7.38497
G1 X117.931 Y68.812 E7.40236
G1 X118.045 Y69.01 E7.40996
G1 X118.28 Y69.472 E7.4272
G1 X118.374 Y69.684 E7.43491
G1 X118.562 Y70.176 E7.45243
G1 X118.631 Y70.389 E7.45988
G1 X118.765 Y70.887 E7.47703
G1 X118.815 Y71.119 E7.48492
G1 X118.897 Y71.643 E7.50256
G1 X118.92 Y71.868 E7.51009
G1 X118.947 Y72.386 E7.52734
G1 X118.95 Y72.501 E7.53117
G1 X118.95 Y147.498 E10.02558
G1 X118.947 Y147.615 E10.02947
G1 X118.919 Y148.143 E10.04705
G1 X118.895 Y148.368 E10.05458
G1 X118.814 Y148.883 E10.07192
G1 X118.765 Y149.115 E10.07981
G1 X118.628 Y149.622 E10.09727
G1 X118.558 Y149.836 E10.10476
G1 X118.369 Y150.329 E10.12232
G1 X118.273 Y150.544 E10.13016
G1 X118.037 Y151.005 E10.14738
G1 X117.924 Y151.2 E10.15488
G1 X117.639 Y151.639 E10.17228
G1 X117.502 Y151.828 E10.18005
G1 X117.17 Y152.237 E10.19757
G1 X116.67 Y152.755 E10.22152
G1 X116.493 Y152.915 E10.22945
G1 X116.065 Y153.261 E10.24776
G1 X115.877 Y153.397 E10.25547
G1 X115.438 Y153.681 E10.27286
G1 X115.24 Y153.795 E10.28046
G1 X114.778 Y154.03 E10.2977
G1 X114.566 Y154.124 E10.30542
G1 X114.074 Y154.312 E10.32293
G1 X113.861 Y154.381 E10.33038
G1 X113.363 Y154.515 E10.34753
G1 X113.131 Y154.565 E10.35543
G1 X112.607 Y154.647 E10.37307
G1 X112.381 Y154.67 E10.38062
G1 X111.861 Y154.697 E10.39794
G1 X111.747 Y154.7 E10.40173
G1 X108.252 Y154.7 E10.51798
G1 X108.135 Y154.697 E10.52187
G1 X107.607 Y154.669 E10.53946
G1 X107.382 Y154.645 E10.54698
G1 X106.867 Y154.564 E10.56432
G1 X106.635 Y154.515 E10.57221
G1 X106.128 Y154.378 E10.58968
G1 X105.914 Y154.308 E10.59717
G1 X105.421 Y154.119 E10.61473
G1 X105.206 Y154.023 E10.62256
G1 X104.745 Y153.787 E10.63978
G1 X104.545 Y153.671 E10.64747
G1 X104.107 Y153.385 E10.66487
G1 X103.927 Y153.254 E10.67228
G1 X103.51 Y152.917 E10.69011
G1 X103.335 Y152.759 E10.69795
G1 X102.981 Y152.404 E10.71463
G1 X102.829 Y152.235 E10.72219
G1 X102.49 Y151.816 E10.74011
G1 X102.353 Y151.627 E10.74788
G1 X102.069 Y151.188 E10.76527
G1 X101.955 Y150.99 E10.77286
G1 X101.72 Y150.528 E10.7901
G1 X101.626 Y150.316 E10.79782
G1 X101.438 Y149.824 E10.81534
G1 X101.369 Y149.611 E10.82278
G1 X101.235 Y149.113 E10.83994
G1 X101.185 Y148.881 E10.84783
G1 X101.103 Y148.357 E10.86547
G1 X101.08 Y148.13 E10.87306
G1 X101.053 Y147.606 E10.89051
G1 X101.05 Y147.493 E10.89427
G1 X101.051 Y72.476 E13.38934
G1 X101.054 Y72.358 E13.39327
G1 X101.081 Y71.857 E13.40996
G1 X101.105 Y71.634 E13.41742
G1 X101.186 Y71.118 E13.43479
G1 X101.235 Y70.885 E13.44271
G1 X101.372 Y70.378 E13.46018
G1 X101.442 Y70.164 E13.46767
G1 X101.631 Y69.671 E13.48523
G1 X101.727 Y69.456 E13.49306
G1 X101.963 Y68.995 E13.51028
G1 X102.076 Y68.8 E13.51778
G1 X102.361 Y68.361 E13.53519
G0 F2266.7 X102.696 Y68.579
G1 F1020 X102.808 Y68.425 E13.54152
G1 X103.14 Y68.016 E13.55904
G1 X103.614 Y67.527 E13.58169
G1 X103.758 Y67.396 E13.58817
G1 X104.186 Y67.05 E13.60647
G1 X104.34 Y66.939 E13.61279
G1 X104.779 Y66.655 E13.63018
G1 X104.941 Y66.562 E13.63639
G1 X105.403 Y66.327 E13.65363
G1 X105.577 Y66.25 E13.65996
G1 X106.069 Y66.062 E13.67748
G1 X106.243 Y66.005 E13.68357
G1 X106.741 Y65.871 E13.70072
G1 X106.931 Y65.831 E13.70718
G1 X107.455 Y65.749 E13.72482
G1 X107.641 Y65.729 E13.73104
G1 X108.166 Y65.702 E13.74852
G1 X108.259 Y65.7 E13.75162
G1 X111.775 Y65.701 E13.86856
G1 X112.361 Y65.73 E13.88808
G1 X112.544 Y65.749 E13.89419
G1 X113.069 Y65.831 E13.91187
G1 X113.261 Y65.871 E13.91839
G1 X113.768 Y66.008 E13.93586
G1 X113.942 Y66.065 E13.94195
G1 X114.435 Y66.254 E13.95951
G1 X114.611 Y66.333 E13.96593
G1 X115.072 Y66.569 E13.98315
G1 X115.236 Y66.664 E13.98945
G1 X115.674 Y66.95 E14.00685
G1 X115.821 Y67.057 E14.0129
G1 X116.238 Y67.394 E14.03073
G1 X116.382 Y67.523 E14.03716
G1 X116.736 Y67.878 E14.05384
G1 X116.86 Y68.017 E14.06003
G1 X117.199 Y68.436 E14.07796
G1 X117.311 Y68.59 E14.08429
G1 X117.595 Y69.029 E14.10168
G1 X117.688 Y69.191 E14.1079
G1 X117.923 Y69.653 E14.12514
G1 X118 Y69.827 E14.13146
G1 X118.188 Y70.319 E14.14898
G1 X118.245 Y70.493 E14.15507
G1 X118.379 Y70.991 E14.17222
G1 X118.419 Y71.181 E14.17868
G1 X118.501 Y71.705 E14.19632
G1 X118.521 Y71.889 E14.20248
G1 X118.548 Y72.407 E14.21973
G1 X118.55 Y72.501 E14.22286
G1 X118.55 Y147.498 E16.71727
G1 X118.547 Y147.593 E16.72043
G1 X118.519 Y148.121 E16.73802
G1 X118.5 Y148.306 E16.7442
G1 X118.419 Y148.821 E16.76154
G1 X118.379 Y149.011 E16.768
G1 X118.242 Y149.518 E16.78547
G1 X118.185 Y149.692 E16.79156
G1 X117.996 Y150.185 E16.80912
G1 X117.917 Y150.361 E16.81553
G1 X117.681 Y150.822 E16.83276
G1 X117.589 Y150.982 E16.8389
G1 X117.304 Y151.421 E16.85631
G1 X117.192 Y151.575 E16.86264
G1 X116.86 Y151.984 E16.88016
G1 X116.386 Y152.473 E16.90281
G1 X116.242 Y152.604 E16.90929
G1 X115.814 Y152.95 E16.92759
G1 X115.66 Y153.061 E16.93391
G1 X115.221 Y153.345 E16.9513
G1 X115.059 Y153.438 E16.95751
G1 X114.597 Y153.673 E16.97475
G1 X114.423 Y153.75 E16.98108
G1 X113.931 Y153.938 E16.9986
G1 X113.757 Y153.995 E17.00469
G1 X113.259 Y154.129 E17.02184
G1 X113.069 Y154.169 E17.0283
G1 X112.545 Y154.251 E17.04594
G1 X112.36 Y154.271 E17.05213
G1 X111.84 Y154.298 E17.06944
G1 X111.747 Y154.3 E17.07254
G1 X108.252 Y154.3 E17.18878
G1 X108.157 Y154.297 E17.19194
G1 X107.629 Y154.269 E17.20953
G1 X107.444 Y154.25 E17.21571
G1 X106.929 Y154.169 E17.23305
G1 X106.739 Y154.129 E17.23951
G1 X106.232 Y153.992 E17.25698
G1 X106.058 Y153.935 E17.26307
G1 X105.565 Y153.746 E17.28063
G1 X105.389 Y153.667 E17.28705
G1 X104.928 Y153.431 E17.30427
G1 X104.764 Y153.336 E17.31058
G1 X104.326 Y153.05 E17.32797
G1 X104.179 Y152.943 E17.33402
G1 X103.762 Y152.606 E17.35185
G1 X103.618 Y152.477 E17.35828
G1 X103.264 Y152.122 E17.37496
G1 X103.14 Y151.983 E17.38115
G1 X102.801 Y151.564 E17.39908
G1 X102.689 Y151.41 E17.40541
G1 X102.405 Y150.971 E17.4228
G1 X102.312 Y150.809 E17.42902
G1 X102.077 Y150.347 E17.44626
G1 X102 Y150.173 E17.45259
G1 X101.812 Y149.681 E17.4701
G1 X101.755 Y149.507 E17.47619
G1 X101.621 Y149.009 E17.49335
G1 X101.581 Y148.819 E17.4998
G1 X101.499 Y148.295 E17.51744
G1 X101.479 Y148.11 E17.52363
G1 X101.452 Y147.586 E17.54108
G1 X101.45 Y147.493 E17.54418
G1 X101.451 Y72.476 E20.03925
G1 X101.454 Y72.379 E20.04248
G1 X101.481 Y71.878 E20.05917
G1 X101.5 Y71.696 E20.06526
G1 X101.581 Y71.18 E20.08263
G1 X101.621 Y70.989 E20.08912
G1 X101.758 Y70.482 E20.10659
G1 X101.815 Y70.308 E20.11268
G1 X102.004 Y69.815 E20.13024
G1 X102.083 Y69.639 E20.13665
G1 X102.319 Y69.178 E20.15388
G1 X102.411 Y69.018 E20.16002
G1 X102.696 Y68.579 E20.17743
G0 F2266.7 X103.032 Y68.797
G1 F1020 X103.119 Y68.677 E20.18236
G1 X103.451 Y68.268 E20.19988
G1 X103.897 Y67.809 E20.22116
G1 X104.01 Y67.707 E20.22623
G1 X104.438 Y67.361 E20.24453
G1 X104.558 Y67.275 E20.24944
G1 X104.997 Y66.991 E20.26683
G1 X105.122 Y66.918 E20.27165
G1 X105.584 Y66.683 E20.28889
G1 X105.719 Y66.623 E20.2938
G1 X106.211 Y66.435 E20.31132
G1 X106.347 Y66.391 E20.31607
G1 X106.845 Y66.257 E20.33322
G1 X106.993 Y66.226 E20.33825
G1 X107.517 Y66.144 E20.35589
G1 X107.661 Y66.129 E20.36071
G1 X108.186 Y66.102 E20.37819
G1 X108.258 Y66.1 E20.38059
G1 X111.774 Y66.101 E20.49753
G1 X112.34 Y66.129 E20.51638
G1 X112.482 Y66.144 E20.52113
G1 X113.007 Y66.226 E20.5388
G1 X113.156 Y66.257 E20.54387
G1 X113.663 Y66.394 E20.56133
G1 X113.799 Y66.439 E20.5661
G1 X114.292 Y66.628 E20.58366
G1 X114.429 Y66.689 E20.58865
G1 X114.89 Y66.925 E20.60587
G1 X115.017 Y66.999 E20.61076
G1 X115.455 Y67.285 E20.62816
G1 X115.57 Y67.368 E20.63288
G1 X115.987 Y67.705 E20.65071
G1 X116.098 Y67.805 E20.65568
G1 X116.452 Y68.16 E20.67235
G1 X116.549 Y68.268 E20.67718
G1 X116.888 Y68.687 E20.69511
G1 X116.975 Y68.808 E20.70006
G1 X117.259 Y69.247 E20.71745
G1 X117.332 Y69.372 E20.72227
G1 X117.567 Y69.834 E20.73951
G1 X117.627 Y69.969 E20.74442
G1 X117.815 Y70.461 E20.76194
G1 X117.859 Y70.597 E20.76669
G1 X117.993 Y71.095 E20.78385
G1 X118.024 Y71.243 E20.78888
G1 X118.106 Y71.767 E20.80652
G1 X118.121 Y71.91 E20.8113
G1 X118.148 Y72.428 E20.82855
G1 X118.15 Y72.501 E20.83098
G1 X118.15 Y147.498 E23.32539
G1 X118.148 Y147.572 E23.32785
G1 X118.12 Y148.1 E23.34544
G1 X118.105 Y148.244 E23.35025
G1 X118.024 Y148.759 E23.36759
G1 X117.993 Y148.906 E23.37259
G1 X117.856 Y149.413 E23.39006
G1 X117.811 Y149.549 E23.39482
G1 X117.622 Y150.042 E23.41238
G1 X117.561 Y150.179 E23.41737
G1 X117.325 Y150.64 E23.4346
G1 X117.253 Y150.764 E23.43937
G1 X116.968 Y151.203 E23.45677
G1 X116.881 Y151.323 E23.4617
G1 X116.549 Y151.732 E23.47922
G1 X116.103 Y152.191 E23.50051
G1 X115.99 Y152.293 E23.50557
G1 X115.562 Y152.639 E23.52388
G1 X115.442 Y152.725 E23.52879
G1 X115.003 Y153.009 E23.54618
G1 X114.878 Y153.082 E23.55099
G1 X114.416 Y153.317 E23.56823
G1 X114.281 Y153.377 E23.57315
G1 X113.789 Y153.565 E23.59067
G1 X113.653 Y153.609 E23.59542
G1 X113.155 Y153.743 E23.61257
G1 X113.007 Y153.774 E23.6176
G1 X112.483 Y153.856 E23.63524
G1 X112.34 Y153.871 E23.64002
G1 X111.82 Y153.898 E23.65734
G1 X111.747 Y153.9 E23.65977
G1 X108.252 Y153.9 E23.77602
G1 X108.178 Y153.898 E23.77848
G1 X107.65 Y153.87 E23.79606
G1 X107.506 Y153.855 E23.80088
G1 X106.991 Y153.774 E23.81822
G1 X106.844 Y153.743 E23.82322
G1 X106.337 Y153.606 E23.84068
G1 X106.201 Y153.561 E23.84545
G1 X105.708 Y153.372 E23.86301
G1 X105.571 Y153.311 E23.868
G1 X105.11 Y153.075 E23.88522
G1 X104.983 Y153.001 E23.89011
G1 X104.545 Y152.715 E23.90751
G1 X104.43 Y152.632 E23.91223
G1 X104.013 Y152.295 E23.93006
G1 X103.902 Y152.195 E23.93503
G1 X103.548 Y151.84 E23.9517
G1 X103.451 Y151.732 E23.95653
G1 X103.112 Y151.313 E23.97446
G1 X103.025 Y151.192 E23.97941
G1 X102.741 Y150.753 E23.9968
G1 X102.668 Y150.628 E24.00162
G1 X102.433 Y150.166 E24.01886
G1 X102.373 Y150.031 E24.02377
G1 X102.185 Y149.539 E24.04129
G1 X102.141 Y149.403 E24.04604
G1 X102.007 Y148.905 E24.0632
G1 X101.976 Y148.757 E24.06823
G1 X101.894 Y148.233 E24.08587
G1 X101.879 Y148.089 E24.09068
G1 X101.852 Y147.565 E24.10813
G1 X101.85 Y147.493 E24.11053
G1 X101.851 Y72.476 E26.60561
G1 X101.853 Y72.401 E26.6081
G1 X101.88 Y71.9 E26.62479
G1 X101.895 Y71.758 E26.62954
G1 X101.976 Y71.242 E26.64691
G1 X102.007 Y71.094 E26.65194
G1 X102.144 Y70.587 E26.66941
G1 X102.189 Y70.451 E26.67417
G1 X102.378 Y69.958 E26.69173
G1 X102.439 Y69.821 E26.69672
G1 X102.675 Y69.36 E26.71395
G1 X102.747 Y69.236 E26.71871
G1 X103.032 Y68.797 E26.73612
G0 F2266.7 X103.367 Y69.014
G1 F1020 X103.43 Y68.929 E26.73964
G1 X103.762 Y68.52 E26.75716
G1 X104.181 Y68.091 E26.77711
G1 X104.261 Y68.018 E26.78071
G1 X104.689 Y67.672 E26.79901
G1 X104.775 Y67.61 E26.80254
G1 X105.214 Y67.326 E26.81993
