;FLAVOR:Marlin
;TIME:170
;Filament used: 0.032538m
;Layer height: 0.2
;MINX:103.4
;MINY:105.254
;MINZ:0.2
;MAXX:116.6
;MAXY:114.747
;MAXZ:4.8
;Generated with Cura_SteamEngine 4.13.0
M140 S64
M105
M190 S64
M104 S205
M105
M109 S205
M82 ;absolute extrusion mode
G28 ; Home all axes
G92 E0 ; Reset extruder position
G1 Z2.0 F3000 ; Move Z to prevent scratching
G1 X0 Y0 F1500 ; Move to front-left corner
G1 Z0.3 ; Baja la boquilla a la altura de impresión inicial
G1 F200 E10 ; Extruye 10 mm de filamento para purgar
G92 E0 ; Reset extruder position again
G1 F200 E3 ; Prime extruder
G92 E0 ; Reset extruder once more
G92 E0
G92 E0
G1 F1800 E-5
;LAYER_COUNT:19
;LAYER:0
M107
G1 F600 Z1.2
G0 F2266.7 X104.346 Y106.067 Z1.2
;TYPE:SKIRT
G1 F600 Z0.2
G1 F1800 E0
G1 F1020 X104.729 Y105.762 E0.01628
G1 X105.157 Y105.524 E0.03257
G1 X105.617 Y105.358 E0.04884
G1 X106.4 Y105.254 E0.07511
G1 X113.6 Y105.254 E0.31458
G1 X114.088 Y105.294 E0.33087
G1 X114.563 Y105.413 E0.34715
G1 X115.012 Y105.607 E0.36342
G1 X115.424 Y105.872 E0.37972
G1 X115.787 Y106.2 E0.39599
G1 X116.092 Y106.583 E0.41227
G1 X116.33 Y107.011 E0.42856
G1 X116.496 Y107.471 E0.44483
G1 X116.6 Y108.254 E0.4711
G1 X116.6 Y111.747 E0.58727
G1 X116.56 Y112.235 E0.60356
G1 X116.441 Y112.71 E0.61985
G1 X116.247 Y113.159 E0.63612
G1 X115.982 Y113.571 E0.65241
G1 X115.654 Y113.934 E0.66868
G1 X115.271 Y114.239 E0.68496
G1 X114.843 Y114.477 E0.70125
G1 X114.383 Y114.643 E0.71752
G1 X113.6 Y114.747 E0.74379
G1 X106.4 Y114.746 E0.98326
G1 X105.912 Y114.706 E0.99955
G1 X105.437 Y114.587 E1.01583
G1 X104.988 Y114.393 E1.0321
G1 X104.576 Y114.128 E1.0484
G1 X104.213 Y113.8 E1.06467
G1 X103.908 Y113.417 E1.08095
G1 X103.67 Y112.989 E1.09724
G1 X103.504 Y112.529 E1.11351
G1 X103.4 Y111.746 E1.13978
G1 X103.4 Y108.254 E1.25592
G1 X103.44 Y107.766 E1.27221
G1 X103.559 Y107.291 E1.28849
G1 X103.753 Y106.842 E1.30476
G1 X104.018 Y106.43 E1.32106
G1 X104.346 Y106.067 E1.33733
G0 F2266.7 X104.738 Y106.254
G1 F1020 X105.113 Y105.995 E1.35249
G1 X105.527 Y105.805 E1.36764
G1 X105.968 Y105.69 E1.38279
G1 X106.4 Y105.654 E1.39721
G1 X113.6 Y105.654 E1.63669
G1 X114.054 Y105.694 E1.65184
G1 X114.494 Y105.812 E1.667
G1 X114.906 Y106.006 E1.68214
G1 X115.279 Y106.269 E1.69732
G1 X115.6 Y106.592 E1.71247
G1 X115.859 Y106.967 E1.72763
G1 X116.049 Y107.381 E1.74278
G1 X116.164 Y107.822 E1.75793
G1 X116.2 Y108.254 E1.77235
G1 X116.2 Y111.747 E1.88853
G1 X116.16 Y112.201 E1.90369
G1 X116.042 Y112.641 E1.91884
G1 X115.848 Y113.053 E1.93399
G1 X115.585 Y113.426 E1.94917
G1 X115.262 Y113.747 E1.96431
G1 X114.887 Y114.006 E1.97947
G1 X114.473 Y114.196 E1.99462
G1 X114.032 Y114.311 E2.00978
G1 X113.6 Y114.347 E2.0242
G1 X106.4 Y114.346 E2.26367
G1 X105.946 Y114.306 E2.27883
G1 X105.506 Y114.187 E2.29399
G1 X105.093 Y113.994 E2.30915
G1 X104.721 Y113.731 E2.3243
G1 X104.4 Y113.408 E2.33945
G1 X104.141 Y113.033 E2.35461
G1 X103.951 Y112.619 E2.36976
G1 X103.836 Y112.178 E2.38492
G1 X103.8 Y111.746 E2.39934
G1 X103.8 Y108.254 E2.51548
G1 X103.84 Y107.8 E2.53064
G1 X103.958 Y107.36 E2.54579
G1 X104.152 Y106.948 E2.56094
G1 X104.415 Y106.575 E2.57612
G1 X104.738 Y106.254 E2.59126
G0 F2266.7 X104.81 Y106.734
G1 F1020 X105.127 Y106.46 E2.6052
G1 X105.49 Y106.251 E2.61913
G1 X105.887 Y106.115 E2.63309
G1 X106.4 Y106.054 E2.65027
G1 X113.6 Y106.054 E2.88974
G1 X114.017 Y106.094 E2.90368
G1 X114.419 Y106.212 E2.91761
G1 X114.791 Y106.405 E2.93155
G1 X115.12 Y106.664 E2.94548
G1 X115.394 Y106.981 E2.95941
G1 X115.603 Y107.344 E2.97334
G1 X115.739 Y107.741 E2.9873
G1 X115.8 Y108.254 E3.00448
G1 X115.8 Y111.747 E3.12066
G1 X115.76 Y112.164 E3.1346
G1 X115.642 Y112.566 E3.14853
G1 X115.449 Y112.938 E3.16247
G1 X115.19 Y113.267 E3.1764
G1 X114.873 Y113.541 E3.19033
G1 X114.51 Y113.75 E3.20426
G1 X114.113 Y113.886 E3.21822
G1 X113.6 Y113.947 E3.2354
G1 X106.4 Y113.946 E3.47488
G1 X105.983 Y113.906 E3.48881
G1 X105.581 Y113.788 E3.50274
G1 X105.208 Y113.595 E3.51671
G1 X104.879 Y113.336 E3.53064
G1 X104.605 Y113.019 E3.54458
G1 X104.397 Y112.655 E3.55852
G1 X104.261 Y112.259 E3.57245
G1 X104.2 Y111.746 E3.58963
G1 X104.2 Y108.254 E3.70577
G1 X104.24 Y107.837 E3.71971
G1 X104.358 Y107.435 E3.73364
G1 X104.551 Y107.063 E3.74758
G1 X104.81 Y106.734 E3.76151
G0 F2266.7 X105.203 Y106.909
G1 F1020 X105.512 Y106.689 E3.77412
G1 X105.859 Y106.537 E3.78672
G1 X106.4 Y106.454 E3.80493
G1 X113.6 Y106.454 E4.0444
G1 X113.977 Y106.494 E4.05701
G1 X114.337 Y106.612 E4.06961
G1 X114.664 Y106.802 E4.08219
G1 X114.945 Y107.057 E4.09481
G1 X115.165 Y107.366 E4.10742
G1 X115.317 Y107.713 E4.12002
G1 X115.4 Y108.254 E4.13823
G1 X115.4 Y111.747 E4.25441
G1 X115.36 Y112.124 E4.26702
G1 X115.242 Y112.484 E4.27962
G1 X115.052 Y112.811 E4.2922
G1 X114.797 Y113.092 E4.30482
G1 X114.488 Y113.312 E4.31743
G1 X114.141 Y113.464 E4.33003
G1 X113.6 Y113.547 E4.34824
G1 X106.4 Y113.546 E4.58771
G1 X106.023 Y113.506 E4.60032
G1 X105.663 Y113.388 E4.61292
G1 X105.335 Y113.197 E4.62554
G1 X105.055 Y112.942 E4.63814
G1 X104.834 Y112.634 E4.65075
G1 X104.683 Y112.287 E4.66333
G1 X104.6 Y111.746 E4.68154
G1 X104.6 Y108.254 E4.79768
G1 X104.64 Y107.877 E4.81029
G1 X104.758 Y107.517 E4.82289
G1 X104.948 Y107.19 E4.83547
G1 X105.203 Y106.909 E4.84809
G0 F2266.7 X105.345 Y107.333
G1 F1020 X105.593 Y107.11 E4.85919
G1 X105.887 Y106.951 E4.8703
G1 X106.4 Y106.854 E4.88767
G1 X113.6 Y106.854 E5.12714
G1 X113.932 Y106.894 E5.13826
G1 X114.244 Y107.011 E5.14934
G1 X114.521 Y107.199 E5.16048
G1 X114.744 Y107.447 E5.17157
G1 X114.903 Y107.741 E5.18269
G1 X115 Y108.254 E5.20005
G1 X115 Y111.747 E5.31623
G1 X114.96 Y112.079 E5.32735
G1 X114.843 Y112.391 E5.33844
G1 X114.655 Y112.668 E5.34957
G1 X114.407 Y112.891 E5.36066
G1 X114.113 Y113.05 E5.37178
G1 X113.6 Y113.147 E5.38915
G1 X106.4 Y113.146 E5.62862
G1 X106.068 Y113.106 E5.63974
G1 X105.755 Y112.989 E5.65085
G1 X105.479 Y112.801 E5.66196
G1 X105.256 Y112.552 E5.67308
G1 X105.097 Y112.258 E5.6842
G1 X105 Y111.746 E5.70153
G1 X105 Y108.254 E5.81767
G1 X105.04 Y107.922 E5.8288
G1 X105.157 Y107.61 E5.83988
G1 X105.345 Y107.333 E5.85101
G0 F2266.7 X105.739 Y107.503
G1 F1020 X105.975 Y107.349 E5.86039
G1 X106.4 Y107.254 E5.87487
G1 X113.6 Y107.254 E6.11434
G1 X113.879 Y107.294 E6.12372
G1 X114.136 Y107.41 E6.1331
G1 X114.351 Y107.593 E6.14249
G1 X114.505 Y107.829 E6.15186
G1 X114.6 Y108.254 E6.16634
G1 X114.6 Y111.747 E6.28252
G1 X114.56 Y112.026 E6.2919
G1 X114.444 Y112.283 E6.30127
G1 X114.261 Y112.498 E6.31066
G1 X114.025 Y112.652 E6.32004
G1 X113.6 Y112.747 E6.33452
G1 X106.4 Y112.746 E6.57399
G1 X106.121 Y112.706 E6.58337
G1 X105.863 Y112.59 E6.59278
G1 X105.649 Y112.406 E6.60216
G1 X105.495 Y112.17 E6.61154
G1 X105.4 Y111.746 E6.62599
G1 X105.4 Y108.254 E6.74213
G1 X105.44 Y107.975 E6.75151
G1 X105.556 Y107.718 E6.76089
G1 X105.739 Y107.503 E6.77028
G0 F2266.7 X105.953 Y107.853
G1 F1020 X106.126 Y107.72 E6.77753
G1 X106.4 Y107.654 E6.78691
G1 X113.6 Y107.654 E7.02638
G1 X113.815 Y107.694 E7.03365
G1 X114.001 Y107.807 E7.04089
G1 X114.134 Y107.98 E7.04815
G1 X114.2 Y108.254 E7.05753
G1 X114.2 Y111.747 E7.1737
G1 X114.16 Y111.962 E7.18098
G1 X114.047 Y112.148 E7.18822
G1 X113.874 Y112.281 E7.19547
G1 X113.6 Y112.347 E7.20485
G1 X106.4 Y112.346 E7.44432
G1 X106.185 Y112.306 E7.45159
G1 X105.999 Y112.193 E7.45883
G1 X105.866 Y112.02 E7.46609
G1 X105.8 Y111.746 E7.47546
G1 X105.8 Y108.254 E7.59161
G1 X105.84 Y108.039 E7.59888
G1 X105.953 Y107.853 E7.60612
G0 F2266.7 X106.239 Y108.135
G1 F1020 X106.4 Y108.054 E7.61211
G1 X113.6 Y108.054 E7.85159
G1 X113.719 Y108.093 E7.85575
G1 X113.8 Y108.254 E7.86175
G1 X113.8 Y111.747 E7.97792
G1 X113.761 Y111.866 E7.98209
G1 X113.6 Y111.947 E7.98808
G1 X106.4 Y111.946 E8.22756
G1 X106.281 Y111.907 E8.23172
G1 X106.2 Y111.746 E8.23772
G1 X106.2 Y108.254 E8.35386
G1 X106.239 Y108.135 E8.35803
G1 F1800 E3.35803
G1 F600 Z1.2
;MESH:PosicionadorCobre.stl
G0 F2266.7 X107.688 Y110.691 Z1.2
;TYPE:WALL-OUTER
G1 F600 Z0.2
G1 F1800 E8.35803
G1 F1020 X107.921 Y110.756 E8.36607
G1 X108.245 Y110.719 E8.37692
G1 X108.508 Y110.564 E8.38707
G1 X108.694 Y110.308 E8.3976
G1 X108.759 Y109.996 E8.4082
G1 X108.683 Y109.673 E8.41923
G1 X108.506 Y109.435 E8.4291
G1 X108.236 Y109.28 E8.43945
G1 X107.92 Y109.244 E8.45003
G1 X107.618 Y109.343 E8.4606
G1 X107.372 Y109.573 E8.4718
G1 X107.251 Y109.875 E8.48262
G1 X107.267 Y110.192 E8.49318
G1 X107.373 Y110.428 E8.50178
G1 X107.688 Y110.691 E8.51543
G0 F2266.7 X107.881 Y110.744
G1 F1800 E3.51543
G1 F600 Z1.2
G0 F2266.7 X109.558 Y110.62 Z1.2
G1 F600 Z0.2
G1 F1800 E8.51543
G1 F1020 X109.841 Y110.743 E8.5257
G1 X110.165 Y110.742 E8.53647
G1 X110.473 Y110.591 E8.54788
G1 X110.657 Y110.381 E8.55717
G1 X110.755 Y110.077 E8.56779
G1 X110.722 Y109.765 E8.57823
G1 X110.565 Y109.494 E8.58864
G1 X110.327 Y109.316 E8.59853
G1 X110.074 Y109.244 E8.60728
G1 X109.693 Y109.307 E8.62012
G1 X109.439 Y109.491 E8.63055
G1 X109.278 Y109.765 E8.64112
G1 X109.245 Y110.079 E8.65163
G1 X109.342 Y110.381 E8.66218
G1 X109.558 Y110.62 E8.67289
G0 F2266.7 X109.741 Y110.699
G1 F1800 E3.67289
G1 F600 Z1.2
G0 F2266.7 X111.817 Y110.737 Z1.2
G1 F600 Z0.2
G1 F1800 E8.67289
G1 F1020 X112.082 Y110.755 E8.68172
G1 X112.38 Y110.659 E8.69214
G1 X112.628 Y110.427 E8.70343
G1 X112.747 Y110.132 E8.71401
G1 X112.733 Y109.81 E8.72473
G1 X112.61 Y109.546 E8.73442
G1 X112.379 Y109.342 E8.74467
G1 X112.079 Y109.245 E8.75516
G1 X111.691 Y109.306 E8.76822
G1 X111.44 Y109.489 E8.77855
G1 X111.278 Y109.765 E8.78919
G1 X111.245 Y110.079 E8.7997
G1 X111.342 Y110.381 E8.81025
G1 X111.573 Y110.628 E8.82149
G1 X111.817 Y110.737 E8.83038
G0 F2266.7 X112.017 Y110.75
G1 F1800 E3.83038
G1 F600 Z1.2
G0 F2266.7 X113.4 Y108.454 Z1.2
G1 F600 Z0.2
G1 F1800 E8.83038
G1 F1020 X113.4 Y111.547 E8.93326
G1 X106.6 Y111.546 E9.15943
G1 X106.6 Y108.454 E9.26227
G1 X113.4 Y108.454 E9.48843
G0 F2266.7 X113.4 Y108.654
G1 F1800 E4.48843
G1 F600 Z1.2
G0 F2266.7 X113 Y109.436 Z1.2
;TYPE:WALL-INNER
G1 F600 Z0.2
G1 F1800 E9.48843
G1 F1020 X112.937 Y109.301 E9.49339
G1 X112.581 Y108.987 E9.50918
G1 X112.17 Y108.854 E9.52355
G1 X112.581 Y108.854 E9.52568
G1 X113 Y108.854 E9.53456
G1 X113 Y109.436 E9.54758
G1 F1800 E4.54758
G1 F600 Z1.2
G0 F2266.7 X112.966 Y110.659 Z1.2
G1 F600 Z0.2
G1 F1800 E9.54758
G1 F1020 X113 Y110.574 E9.55062
G1 X113 Y111.147 E9.56968
G1 X112.588 Y111.147 E9.58338
G1 X112.17 Y111.147 E9.59729
G1 X112.588 Y111.012 E9.6002
G1 X112.966 Y110.659 E9.60935
G1 F1800 E4.60935
G1 F600 Z1.2
G0 F2266.7 X111.719 Y111.131 Z1.2
G1 F600 Z0.2
G1 F1800 E9.60935
G1 F1020 X111.952 Y111.147 E9.61712
G1 X111.336 Y111.147 E9.63025
G1 X110.721 Y111.147 E9.6507
G1 X110.258 Y111.147 E9.6661
G1 X109.758 Y111.147 E9.68273
G1 X109.319 Y111.147 E9.69733
G1 X108.783 Y111.147 E9.71516
G1 X108.029 Y111.146 E9.74024
G1 X108.375 Y111.107 E9.75182
G1 X108.783 Y110.866 E9.76336
G1 X108.987 Y110.585 E9.77491
G1 X109.319 Y110.952 E9.79137
G1 X109.758 Y111.143 E9.79605
G1 X110.258 Y111.142 E9.79624
G1 X110.721 Y110.915 E9.80222
G1 X110.998 Y110.598 E9.81622
G1 X111.336 Y110.96 E9.8327
G1 X111.719 Y111.131 E9.83406
G1 F1800 E4.83406
G1 F600 Z1.2
G0 F2266.7 X111.137 Y109.215 Z1.2
G1 F600 Z0.2
G1 F1800 E9.83406
G1 F1020 X111 Y109.447 E9.84302
G1 X110.87 Y109.223 E9.84657
G1 X110.507 Y108.951 E9.86165
G1 X110.164 Y108.854 E9.87351
G1 X110.87 Y108.854 E9.88769
G1 X111.533 Y108.854 E9.90974
G1 X111.99 Y108.854 E9.92494
G1 X111.533 Y108.926 E9.92644
G1 X111.137 Y109.215 E9.94115
G1 F1800 E4.94115
G1 F600 Z1.2
G0 F2266.7 X109.137 Y109.216 Z1.2
G1 F600 Z0.2
G1 F1800 E9.94115
G1 F1020 X109.006 Y109.438 E9.94972
G1 X108.777 Y109.13 E9.95747
M104 S200
G1 X108.363 Y108.892 E9.97336
G1 X108.028 Y108.854 E9.98457
G1 X108.777 Y108.854 E9.99749
G1 X109.535 Y108.854 E10.0227
G1 X109.982 Y108.854 E10.03757
G1 X109.535 Y108.928 E10.0391
G1 X109.137 Y109.216 E10.05544
G1 F1800 E5.05544
G1 F600 Z1.2
G0 F2266.7 X107.034 Y109.342 Z1.2
G1 F600 Z0.2
G1 F1800 E10.05544
G1 F1020 X107 Y109.427 E10.05848
G1 X107 Y108.854 E10.07754
G1 X107.409 Y108.854 E10.09115
G1 X107.826 Y108.854 E10.10502
G1 X107.409 Y108.99 E10.10792
G1 X107.034 Y109.342 E10.117
G1 F1800 E5.117
G1 F600 Z1.2
G0 F2266.7 X107.498 Y111.053 Z1.2
G1 F600 Z0.2
G1 F1800 E10.117
G1 F1020 X107.832 Y111.146 E10.12853
G1 X107 Y111.146 E10.1562
G1 X107 Y110.574 E10.17523
G1 X107.046 Y110.676
G1 X107.498 Y111.053 E10.18598
G1 F1800 E5.18598
G1 F600 Z1.2
;MESH:NONMESH
G0 F2266.7 X107.135 Y109.235 Z1.2
;TIME_ELAPSED:31.644008
;LAYER:1
M140 S62
M106 S23.2
;MESH:PosicionadorCobre.stl
G0 F4133.3 X107.135 Y109.235 Z1.4
;TYPE:WALL-INNER
G1 F600 Z0.4
G1 F1800 E10.18598
G1 F1540.5 X107 Y109.473 E10.19508
G1 X107 Y108.885 E10.20681
G1 X107.884 Y108.885 E10.23622
G1 X107.503 Y108.956 E10.23751
G1 X107.135 Y109.235 E10.24275
G1 F1800 E5.24275
G1 F600 Z1.4
G0 F4133.3 X107.301 Y110.917 Z1.4
G1 F600 Z0.4
G1 F1800 E10.24275
G1 F1540.5 X107.716 Y111.115 E10.25804
G1 X107 Y111.115 E10.26749
G1 X107 Y110.57 E10.28562
G1 X107.301 Y110.917 E10.28911
G1 F1800 E5.28911
G1 F600 Z1.4
G0 F4133.3 X109.322 Y110.938 Z1.4
G1 F600 Z0.4
G1 F1800 E10.28911
G1 F1540.5 X109.732 Y111.115 E10.30397
G1 X109.322 Y111.115 E10.30675
G1 X108.687 Y111.115 E10.32787
G1 X108.274 Y111.115 E10.34161
G1 X108.687 Y110.926 E10.34595
G1 X109 Y110.575 E10.36159
G1 X109.322 Y110.938 E10.37773
G1 F1800 E5.37773
G1 F600 Z1.4
G0 F4133.3 X109.137 Y109.232 Z1.4
G1 F600 Z0.4
G1 F1800 E10.37773
G1 F1540.5 X108.999 Y109.472 E10.38694
G1 X108.848 Y109.215 E10.39157
G1 X108.473 Y108.953 E10.40679
G1 X108.226 Y108.885 E10.41531
G1 X109.137 Y108.885 E10.43464
G1 X109.876 Y108.885 E10.45922
G1 X109.527 Y108.945 E10.46181
G1 X109.137 Y109.232 E10.4684
G1 F1800 E5.4684
G1 F600 Z1.4
G0 F4133.3 X111.138 Y109.231 Z1.4
G1 F600 Z0.4
G1 F1800 E10.4684
G1 F1540.5 X110.998 Y109.473 E10.4777
G1 X110.849 Y109.219 E10.48222
G1 X110.504 Y108.964 E10.49648
G1 X110.229 Y108.885 E10.506
G1 X111.138 Y108.885 E10.52595
G1 X111.814 Y108.885 E10.54843
G1 X111.528 Y108.947 E10.55002
G1 X111.138 Y109.231 E10.55707
G1 F1800 E5.55707
G1 F600 Z1.4
G0 F4133.3 X112.469 Y108.948 Z1.4
G1 F600 Z0.4
G1 F1800 E10.55707
G1 F1540.5 X112.176 Y108.885 E10.56704
G1 X113 Y108.885 E10.59444
G1 X113 Y109.474 E10.61403
G1 X112.846 Y109.214
G1 X112.469 Y108.948 E10.61446
G1 F1800 E5.61446
G1 F600 Z1.4
G0 F4133.3 X112.712 Y110.909 Z1.4
G1 F600 Z0.4
G1 F1800 E10.61446
G1 F1540.5 X113 Y110.57 E10.62925
G1 X113 Y111.116 E10.63879
G1 X112.29 Y111.116 E10.66241
G1 X112.712 Y110.909 E10.66738
G1 F1800 E5.66738
G1 F600 Z1.4
G0 F4133.3 X111.322 Y110.937 Z1.4
G1 F600 Z0.4
G1 F1800 E10.66738
G1 F1540.5 X111.727 Y111.116 E10.6821
G1 X111.322 Y111.116 E10.68487
G1 X110.288 Y111.116 E10.71926
G1 X110.685 Y110.929 E10.73386
G1 X111 Y110.574 E10.74964
G1 X111.322 Y110.937 E10.76578
G0 F4133.3 X111.562 Y110.606
;TYPE:WALL-OUTER
G1 F981.4 X111.844 Y110.73 E10.77603
G1 X112.185 Y110.722 E10.78737
G1 X112.462 Y110.586 E10.79764
G1 X112.644 Y110.373 E10.80696
G1 X112.743 Y110.073 E10.81746
G1 X112.717 Y109.78 E10.82725
G1 X112.546 Y109.492 E10.83839
G1 X112.305 Y109.322 E10.8482
G1 X111.994 Y109.255 E10.85878
G1 X111.695 Y109.32 E10.86895
G1 X111.442 Y109.504 E10.87936
G1 X111.297 Y109.756 E10.88903
G1 X111.259 Y110.077 E10.89978
G1 X111.357 Y110.378 E10.91031
G1 X111.562 Y110.606 E10.92051
G0 F4133.3 X111.745 Y110.686
G1 F1800 E5.92051
G1 F600 Z1.4
G0 F4133.3 X109.562 Y110.606 Z1.4
G1 F600 Z0.4
G1 F1800 E10.92051
G1 F981.4 X109.852 Y110.732 E10.93102
G1 X110.174 Y110.727 E10.94173
G1 X110.444 Y110.6 E10.95166
G1 X110.641 Y110.386 E10.96133
G1 X110.742 Y110.076 E10.97218
G1 X110.711 Y109.773 E10.98231
G1 X110.546 Y109.492 E10.99315
G1 X110.325 Y109.329 E11.00228
G1 X110.074 Y109.257 E11.01096
G1 X109.688 Y109.323 E11.02399
G1 X109.442 Y109.504 E11.03415
G1 X109.297 Y109.756 E11.04382
G1 X109.259 Y110.08 E11.05467
G1 X109.356 Y110.376 E11.06503
G1 X109.562 Y110.606 E11.0753
G0 F4133.3 X109.745 Y110.685
G1 F1800 E6.0753
G1 F600 Z1.4
G0 F4133.3 X107.824 Y110.724 Z1.4
G1 F600 Z0.4
G1 F1800 E11.0753
G1 F981.4 X108.149 Y110.733 E11.08611
G1 X108.447 Y110.596 E11.09702
G1 X108.641 Y110.386 E11.10653
G1 X108.74 Y110.074 E11.11742
