;FLAVOR:Marlin
;TIME:4605
;Filament used: 2.75697m
;Layer height: 0.2
;MINX:92.4
;MINY:57.4
;MINZ:0.2
;MAXX:127.6
;MAXY:162.6
;MAXZ:26.6
;Generated with Cura_SteamEngine 4.13.0
M140 S64
M105
M190 S64
M104 S205
M105
M109 S205
M82 ;absolute extrusion mode
G28 ; Home all axes
G92 E0 ; Reset extruder position
G1 Z2.0 F3000 ; Move Z to prevent scratching
G1 X0 Y0 F1500 ; Move to front-left corner
G1 Z0.3 ; Baja la boquilla a la altura de impresión inicial
G1 F200 E10 ; Extruye 10 mm de filamento para purgar
G92 E0 ; Reset extruder position again
G1 F200 E3 ; Prime extruder
G92 E0 ; Reset extruder once more
G92 E0
G92 E0
G1 F1800 E-5
;LAYER_COUNT:128
;LAYER:0
M107
G1 F600 Z1.2
G0 F2266.7 X93.775 Y60.643 Z1.2
;TYPE:SKIRT
G1 F600 Z0.2
G1 F1800 E0
G1 F1020 X93.937 Y60.42 E0.00917
G1 X94.269 Y60.011 E0.02669
G1 X94.796 Y59.463 E0.05198
G1 X95.005 Y59.274 E0.06135
G1 X95.433 Y58.928 E0.07965
G1 X95.656 Y58.767 E0.0888
G1 X96.095 Y58.483 E0.10619
G1 X96.328 Y58.349 E0.11513
G1 X96.79 Y58.114 E0.13237
G1 X97.041 Y58.002 E0.14151
G1 X97.533 Y57.814 E0.15903
G1 X97.785 Y57.732 E0.16784
G1 X98.283 Y57.598 E0.185
G1 X98.557 Y57.54 E0.19431
G1 X99.081 Y57.458 E0.21195
G1 X99.349 Y57.43 E0.22092
G1 X99.873 Y57.403 E0.23837
G1 X100.007 Y57.4 E0.24282
G1 X120.024 Y57.401 E0.90859
G1 X120.653 Y57.431 E0.92954
G1 X120.917 Y57.458 E0.93836
G1 X121.442 Y57.54 E0.95604
G1 X121.719 Y57.599 E0.96546
G1 X122.226 Y57.736 E0.98292
G1 X122.479 Y57.818 E0.99177
G1 X122.972 Y58.007 E1.00933
G1 X123.226 Y58.121 E1.01859
G1 X123.687 Y58.357 E1.03582
G1 X123.924 Y58.494 E1.04492
G1 X124.362 Y58.78 E1.06232
G1 X124.574 Y58.935 E1.07105
G1 X124.991 Y59.272 E1.08889
G1 X125.198 Y59.458 E1.09814
G1 X125.552 Y59.813 E1.11482
G1 X125.732 Y60.014 E1.12379
G1 X126.071 Y60.433 E1.14172
G1 X126.233 Y60.656 E1.15089
G1 X126.517 Y61.095 E1.16828
G1 X126.651 Y61.328 E1.17722
G1 X126.886 Y61.79 E1.19446
G1 X126.998 Y62.041 E1.2036
G1 X127.186 Y62.533 E1.22111
G1 X127.268 Y62.785 E1.22993
G1 X127.402 Y63.283 E1.24708
G1 X127.46 Y63.557 E1.2564
G1 X127.542 Y64.081 E1.27404
G1 X127.569 Y64.348 E1.28296
G1 X127.596 Y64.866 E1.30022
G1 X127.6 Y65.001 E1.30471
G1 X127.6 Y154.998 E4.29802
G1 X127.596 Y155.136 E4.30261
G1 X127.568 Y155.664 E4.3202
G1 X127.54 Y155.93 E4.32909
G1 X127.459 Y156.445 E4.34643
G1 X127.401 Y156.719 E4.35575
G1 X127.264 Y157.226 E4.37322
G1 X127.182 Y157.479 E4.38206
G1 X126.993 Y157.972 E4.39962
G1 X126.879 Y158.226 E4.40888
G1 X126.643 Y158.687 E4.42611
G1 X126.51 Y158.918 E4.43497
G1 X126.225 Y159.357 E4.45238
G1 X126.063 Y159.58 E4.46155
G1 X125.731 Y159.989 E4.47907
G1 X125.204 Y160.537 E4.50436
G1 X124.995 Y160.726 E4.51373
G1 X124.567 Y161.072 E4.53203
G1 X124.344 Y161.233 E4.54118
G1 X123.905 Y161.517 E4.55857
G1 X123.672 Y161.651 E4.56751
G1 X123.21 Y161.886 E4.58475
G1 X122.959 Y161.998 E4.59389
G1 X122.467 Y162.186 E4.61141
G1 X122.215 Y162.268 E4.62023
G1 X121.717 Y162.402 E4.63738
G1 X121.443 Y162.46 E4.64669
G1 X120.919 Y162.542 E4.66433
G1 X120.651 Y162.57 E4.6733
G1 X120.127 Y162.597 E4.69075
G1 X119.993 Y162.6 E4.69521
G1 X99.976 Y162.599 E5.36097
G1 X99.836 Y162.595 E5.36563
G1 X99.335 Y162.568 E5.38232
G1 X99.072 Y162.541 E5.39111
G1 X98.556 Y162.46 E5.40849
G1 X98.281 Y162.401 E5.41784
G1 X97.774 Y162.264 E5.43531
G1 X97.521 Y162.182 E5.44415
G1 X97.028 Y161.993 E5.46172
G1 X96.774 Y161.879 E5.47098
G1 X96.313 Y161.643 E5.4882
G1 X96.076 Y161.506 E5.49731
G1 X95.638 Y161.22 E5.5147
G1 X95.426 Y161.065 E5.52344
G1 X95.009 Y160.728 E5.54127
G1 X94.802 Y160.542 E5.55053
G1 X94.448 Y160.187 E5.5672
G1 X94.268 Y159.986 E5.57618
G1 X93.929 Y159.567 E5.5941
G1 X93.767 Y159.344 E5.60327
G1 X93.483 Y158.905 E5.62066
G1 X93.349 Y158.672 E5.6296
G1 X93.114 Y158.21 E5.64684
G1 X93.002 Y157.959 E5.65598
G1 X92.814 Y157.467 E5.6735
G1 X92.732 Y157.215 E5.68231
G1 X92.598 Y156.717 E5.69947
G1 X92.54 Y156.443 E5.70878
G1 X92.458 Y155.919 E5.72642
G1 X92.431 Y155.652 E5.73535
G1 X92.404 Y155.134 E5.7526
G1 X92.4 Y154.999 E5.75709
G1 X92.4 Y65.002 E8.7504
G1 X92.404 Y64.864 E8.755
G1 X92.432 Y64.336 E8.77258
G1 X92.46 Y64.07 E8.78148
G1 X92.541 Y63.555 E8.79882
G1 X92.599 Y63.281 E8.80813
G1 X92.736 Y62.774 E8.8256
G1 X92.818 Y62.521 E8.83445
G1 X93.007 Y62.028 E8.85201
G1 X93.121 Y61.774 E8.86127
G1 X93.357 Y61.313 E8.87849
G1 X93.49 Y61.082 E8.88736
G1 X93.775 Y60.643 E8.90477
G0 F2266.7 X94.111 Y60.861
G1 F1020 X94.248 Y60.672 E8.91253
G1 X94.58 Y60.263 E8.93005
G1 X95.08 Y59.745 E8.954
G1 X95.257 Y59.585 E8.96193
G1 X95.685 Y59.239 E8.98024
G1 X95.873 Y59.103 E8.98795
G1 X96.312 Y58.819 E9.00535
G1 X96.51 Y58.705 E9.01294
G1 X96.972 Y58.47 E9.03018
G1 X97.184 Y58.376 E9.0379
G1 X97.676 Y58.188 E9.05542
G1 X97.889 Y58.119 E9.06286
G1 X98.387 Y57.985 E9.08001
G1 X98.619 Y57.935 E9.08791
G1 X99.143 Y57.853 E9.10555
G1 X99.37 Y57.83 E9.11314
G1 X99.894 Y57.803 E9.13059
G1 X100.007 Y57.8 E9.13435
G1 X120.024 Y57.801 E9.80012
G1 X120.632 Y57.83 E9.82036
G1 X120.856 Y57.853 E9.82785
G1 X121.381 Y57.935 E9.84552
G1 X121.615 Y57.985 E9.85348
G1 X122.122 Y58.122 E9.87095
G1 X122.336 Y58.192 E9.87844
G1 X122.829 Y58.381 E9.896
G1 X123.044 Y58.477 E9.90383
G1 X123.505 Y58.713 E9.92106
G1 X123.705 Y58.829 E9.92875
G1 X124.143 Y59.115 E9.94615
G1 X124.323 Y59.246 E9.95355
G1 X124.74 Y59.583 E9.97138
G1 X124.915 Y59.741 E9.97922
G1 X125.269 Y60.096 E9.9959
G1 X125.421 Y60.265 E10.00346
G1 X125.76 Y60.684 E10.02138
G1 X125.897 Y60.873 E10.02915
G1 X126.181 Y61.312 E10.04654
G1 X126.295 Y61.51 E10.05414
G1 X126.53 Y61.972 E10.07138
G1 X126.624 Y62.184 E10.07909
G1 X126.812 Y62.676 E10.09661
G1 X126.881 Y62.889 E10.10406
G1 X127.015 Y63.387 E10.12121
G1 X127.065 Y63.619 E10.1291
G1 X127.147 Y64.143 E10.14674
G1 X127.17 Y64.368 E10.15427
G1 X127.197 Y64.886 E10.17152
G1 X127.2 Y65.001 E10.17534
G1 X127.2 Y154.998 E13.16866
G1 X127.197 Y155.115 E13.17255
G1 X127.169 Y155.643 E13.19013
G1 X127.145 Y155.868 E13.19766
G1 X127.064 Y156.383 E13.215
G1 X127.015 Y156.615 E13.22289
G1 X126.878 Y157.122 E13.24035
G1 X126.808 Y157.336 E13.24784
G1 X126.619 Y157.829 E13.2654
G1 X126.523 Y158.044 E13.27324
G1 X126.287 Y158.505 E13.29046
G1 X126.174 Y158.7 E13.29796
G1 X125.889 Y159.139 E13.31537
G1 X125.752 Y159.328 E13.32313
G1 X125.42 Y159.737 E13.34065
G1 X124.92 Y160.255 E13.3646
G1 X124.743 Y160.415 E13.37253
G1 X124.315 Y160.761 E13.39084
G1 X124.127 Y160.897 E13.39855
G1 X123.688 Y161.181 E13.41594
G1 X123.49 Y161.295 E13.42354
G1 X123.028 Y161.53 E13.44078
G1 X122.816 Y161.624 E13.4485
G1 X122.324 Y161.812 E13.46601
G1 X122.111 Y161.881 E13.47346
G1 X121.613 Y162.015 E13.49061
G1 X121.381 Y162.065 E13.49851
G1 X120.857 Y162.147 E13.51615
G1 X120.63 Y162.17 E13.52374
G1 X120.106 Y162.197 E13.54119
G1 X119.993 Y162.2 E13.54495
G1 X99.976 Y162.199 E14.21072
G1 X99.858 Y162.196 E14.21464
G1 X99.357 Y162.169 E14.23133
G1 X99.134 Y162.145 E14.23879
G1 X98.618 Y162.064 E14.25616
G1 X98.385 Y162.015 E14.26408
G1 X97.878 Y161.878 E14.28155
G1 X97.664 Y161.808 E14.28904
G1 X97.171 Y161.619 E14.3066
G1 X96.956 Y161.523 E14.31443
G1 X96.495 Y161.287 E14.33165
G1 X96.295 Y161.171 E14.33934
G1 X95.857 Y160.885 E14.35674
G1 X95.677 Y160.754 E14.36415
G1 X95.26 Y160.417 E14.38198
G1 X95.085 Y160.259 E14.38982
G1 X94.731 Y159.904 E14.4065
G1 X94.579 Y159.735 E14.41406
G1 X94.24 Y159.316 E14.43198
G1 X94.103 Y159.127 E14.43975
G1 X93.819 Y158.688 E14.45714
G1 X93.705 Y158.49 E14.46474
G1 X93.47 Y158.028 E14.48198
G1 X93.376 Y157.816 E14.48969
G1 X93.188 Y157.324 E14.50721
G1 X93.119 Y157.111 E14.51465
G1 X92.985 Y156.613 E14.53181
G1 X92.935 Y156.381 E14.5397
G1 X92.853 Y155.857 E14.55734
G1 X92.83 Y155.632 E14.56486
G1 X92.803 Y155.114 E14.58211
G1 X92.8 Y154.999 E14.58594
G1 X92.8 Y65.002 E17.57925
G1 X92.803 Y64.885 E17.58315
G1 X92.831 Y64.357 E17.60073
G1 X92.855 Y64.132 E17.60826
G1 X92.936 Y63.617 E17.6256
G1 X92.985 Y63.385 E17.63348
G1 X93.122 Y62.878 E17.65095
G1 X93.192 Y62.664 E17.65844
G1 X93.381 Y62.171 E17.676
G1 X93.477 Y61.956 E17.68383
G1 X93.713 Y61.495 E17.70106
G1 X93.826 Y61.3 E17.70855
G1 X94.111 Y60.861 E17.72596
G0 F2266.7 X94.446 Y61.079
G1 F1020 X94.558 Y60.925 E17.7323
G1 X94.89 Y60.516 E17.74982
G1 X95.364 Y60.027 E17.77247
G1 X95.508 Y59.896 E17.77894
G1 X95.936 Y59.55 E17.79725
G1 X96.09 Y59.439 E17.80356
G1 X96.529 Y59.155 E17.82095
G1 X96.691 Y59.062 E17.82717
G1 X97.153 Y58.827 E17.84441
G1 X97.327 Y58.75 E17.85073
G1 X97.819 Y58.562 E17.86825
G1 X97.993 Y58.505 E17.87434
G1 X98.491 Y58.371 E17.89149
G1 X98.681 Y58.331 E17.89795
G1 X99.205 Y58.249 E17.91559
G1 X99.39 Y58.229 E17.92178
G1 X99.914 Y58.202 E17.93923
G1 X100.007 Y58.2 E17.94233
G1 X120.024 Y58.201 E18.6081
G1 X120.611 Y58.23 E18.62764
G1 X120.794 Y58.249 E18.63376
G1 X121.319 Y58.331 E18.65144
G1 X121.511 Y58.371 E18.65796
G1 X122.018 Y58.508 E18.67543
G1 X122.192 Y58.565 E18.68152
G1 X122.685 Y58.754 E18.69908
G1 X122.861 Y58.833 E18.70549
G1 X123.322 Y59.069 E18.72272
G1 X123.486 Y59.164 E18.72902
G1 X123.924 Y59.45 E18.74642
G1 X124.071 Y59.557 E18.75247
G1 X124.488 Y59.894 E18.7703
G1 X124.632 Y60.023 E18.77673
G1 X124.986 Y60.378 E18.79341
G1 X125.11 Y60.517 E18.7996
G1 X125.449 Y60.936 E18.81753
G1 X125.561 Y61.09 E18.82386
G1 X125.845 Y61.529 E18.84125
G1 X125.938 Y61.691 E18.84746
G1 X126.173 Y62.153 E18.8647
G1 X126.25 Y62.327 E18.87103
G1 X126.438 Y62.819 E18.88855
G1 X126.495 Y62.993 E18.89464
G1 X126.629 Y63.491 E18.91179
G1 X126.669 Y63.681 E18.91825
G1 X126.751 Y64.205 E18.93589
G1 X126.771 Y64.389 E18.94205
G1 X126.798 Y64.907 E18.9593
G1 X126.8 Y65.001 E18.96243
G1 X126.8 Y154.998 E21.95574
G1 X126.797 Y155.093 E21.9589
G1 X126.769 Y155.621 E21.97649
G1 X126.75 Y155.806 E21.98267
G1 X126.669 Y156.321 E22.00001
G1 X126.629 Y156.511 E22.00647
G1 X126.492 Y157.018 E22.02394
G1 X126.435 Y157.192 E22.03003
G1 X126.246 Y157.685 E22.04759
G1 X126.167 Y157.861 E22.054
G1 X125.931 Y158.322 E22.07123
G1 X125.839 Y158.482 E22.07737
G1 X125.554 Y158.921 E22.09478
G1 X125.442 Y159.075 E22.10111
G1 X125.11 Y159.484 E22.11863
G1 X124.636 Y159.973 E22.14128
G1 X124.492 Y160.104 E22.14776
G1 X124.064 Y160.45 E22.16606
G1 X123.91 Y160.561 E22.17238
G1 X123.471 Y160.845 E22.18977
G1 X123.309 Y160.938 E22.19598
G1 X122.847 Y161.173 E22.21322
G1 X122.673 Y161.25 E22.21955
G1 X122.181 Y161.438 E22.23706
G1 X122.007 Y161.495 E22.24315
G1 X121.509 Y161.629 E22.26031
G1 X121.319 Y161.669 E22.26677
G1 X120.795 Y161.751 E22.28441
G1 X120.61 Y161.771 E22.29059
G1 X120.086 Y161.798 E22.30805
G1 X119.993 Y161.8 E22.31114
G1 X99.976 Y161.799 E22.97691
G1 X99.879 Y161.796 E22.98014
G1 X99.378 Y161.769 E22.99682
G1 X99.196 Y161.75 E23.00291
G1 X98.68 Y161.669 E23.02028
G1 X98.489 Y161.629 E23.02677
G1 X97.982 Y161.492 E23.04424
G1 X97.808 Y161.435 E23.05033
G1 X97.315 Y161.246 E23.06789
G1 X97.139 Y161.167 E23.07431
G1 X96.678 Y160.931 E23.09153
G1 X96.514 Y160.836 E23.09784
G1 X96.076 Y160.55 E23.11523
G1 X95.929 Y160.443 E23.12128
G1 X95.512 Y160.106 E23.13911
G1 X95.368 Y159.977 E23.14554
G1 X95.014 Y159.622 E23.16222
G1 X94.89 Y159.483 E23.16841
G1 X94.551 Y159.064 E23.18634
G1 X94.439 Y158.91 E23.19267
G1 X94.155 Y158.471 E23.21006
G1 X94.062 Y158.309 E23.21628
G1 X93.827 Y157.847 E23.23352
G1 X93.75 Y157.673 E23.23985
G1 X93.562 Y157.181 E23.25736
G1 X93.505 Y157.007 E23.26345
G1 X93.371 Y156.509 E23.28061
G1 X93.331 Y156.319 E23.28706
G1 X93.249 Y155.795 E23.3047
G1 X93.229 Y155.611 E23.31086
G1 X93.202 Y155.093 E23.32811
G1 X93.2 Y154.999 E23.33124
G1 X93.2 Y65.002 E26.32455
G1 X93.203 Y64.907 E26.32771
G1 X93.231 Y64.379 E26.3453
G1 X93.25 Y64.194 E26.35149
G1 X93.331 Y63.679 E26.36882
G1 X93.371 Y63.489 E26.37528
G1 X93.508 Y62.982 E26.39275
G1 X93.565 Y62.808 E26.39884
G1 X93.754 Y62.315 E26.4164
G1 X93.833 Y62.139 E26.42282
G1 X94.069 Y61.678 E26.44004
G1 X94.161 Y61.518 E26.44618
G1 X94.446 Y61.079 E26.46359
G0 F2266.7 X94.782 Y61.297
G1 F1020 X94.869 Y61.177 E26.46852
G1 X95.201 Y60.768 E26.48604
G1 X95.647 Y60.309 E26.50733
G1 X95.76 Y60.207 E26.51239
G1 X96.188 Y59.861 E26.5307
G1 X96.308 Y59.775 E26.53561
G1 X96.747 Y59.491 E26.553
G1 X96.872 Y59.418 E26.55781
G1 X97.334 Y59.183 E26.57505
G1 X97.469 Y59.123 E26.57996
G1 X97.961 Y58.935 E26.59748
G1 X98.097 Y58.891 E26.60224
G1 X98.595 Y58.757 E26.61939
G1 X98.743 Y58.726 E26.62442
G1 X99.267 Y58.644 E26.64206
G1 X99.411 Y58.629 E26.64687
G1 X99.935 Y58.602 E26.66433
G1 X100.007 Y58.6 E26.66672
G1 X120.024 Y58.601 E27.33249
G1 X120.59 Y58.629 E27.35134
G1 X120.732 Y58.644 E27.35609
G1 X121.257 Y58.726 E27.37376
G1 X121.406 Y58.757 E27.37882
G1 X121.913 Y58.894 E27.39629
G1 X122.049 Y58.939 E27.40105
G1 X122.542 Y59.128 E27.41861
G1 X122.679 Y59.189 E27.4236
G1 X123.14 Y59.425 E27.44083
G1 X123.267 Y59.499 E27.44572
G1 X123.705 Y59.785 E27.46312
G1 X123.82 Y59.868 E27.46783
G1 X124.237 Y60.205 E27.48566
G1 X124.348 Y60.305 E27.49063
G1 X124.702 Y60.66 E27.50731
G1 X124.799 Y60.768 E27.51214
G1 X125.138 Y61.187 E27.53006
G1 X125.225 Y61.308 E27.53502
G1 X125.509 Y61.747 E27.55241
G1 X125.582 Y61.872 E27.55722
G1 X125.817 Y62.334 E27.57446
G1 X125.877 Y62.469 E27.57938
G1 X126.065 Y62.961 E27.5969
G1 X126.109 Y63.097 E27.60165
G1 X126.243 Y63.595 E27.6188
G1 X126.274 Y63.743 E27.62383
G1 X126.356 Y64.267 E27.64147
G1 X126.371 Y64.41 E27.64625
G1 X126.398 Y64.928 E27.66351
G1 X126.4 Y65.001 E27.66594
G1 X126.4 Y154.998 E30.65925
G1 X126.398 Y155.072 E30.66171
G1 X126.37 Y155.6 E30.6793
G1 X126.355 Y155.744 E30.68411
G1 X126.274 Y156.259 E30.70145
G1 X126.243 Y156.406 E30.70645
G1 X126.106 Y156.913 E30.72392
G1 X126.061 Y157.049 E30.72868
G1 X125.872 Y157.542 E30.74624
G1 X125.811 Y157.679 E30.75123
G1 X125.575 Y158.14 E30.76845
G1 X125.503 Y158.264 E30.77322
G1 X125.218 Y158.703 E30.79063
G1 X125.131 Y158.823 E30.79556
G1 X124.799 Y159.232 E30.81308
G1 X124.353 Y159.691 E30.83437
G1 X124.24 Y159.793 E30.83943
G1 X123.812 Y160.139 E30.85774
G1 X123.692 Y160.225 E30.86265
G1 X123.253 Y160.509 E30.88004
G1 X123.128 Y160.582 E30.88485
G1 X122.666 Y160.817 E30.90209
G1 X122.531 Y160.877 E30.90701
G1 X122.039 Y161.065 E30.92452
G1 X121.903 Y161.109 E30.92928
G1 X121.405 Y161.243 E30.94643
G1 X121.257 Y161.274 E30.95146
G1 X120.733 Y161.356 E30.9691
G1 X120.589 Y161.371 E30.97392
G1 X120.065 Y161.398 E30.99137
G1 X119.993 Y161.4 E30.99376
G1 X99.976 Y161.399 E31.65953
G1 X99.901 Y161.397 E31.66203
G1 X99.4 Y161.37 E31.67871
G1 X99.258 Y161.355 E31.68346
G1 X98.742 Y161.274 E31.70084
G1 X98.594 Y161.243 E31.70586
G1 X98.087 Y161.106 E31.72333
G1 X97.951 Y161.061 E31.7281
G1 X97.458 Y160.872 E31.74566
G1 X97.321 Y160.811 E31.75065
G1 X96.86 Y160.575 E31.76787
G1 X96.733 Y160.501 E31.77276
G1 X96.295 Y160.215 E31.79016
G1 X96.18 Y160.132 E31.79488
G1 X95.763 Y159.795 E31.81271
G1 X95.652 Y159.695 E31.81768
G1 X95.298 Y159.34 E31.83435
G1 X95.201 Y159.232 E31.83918
G1 X94.862 Y158.813 E31.85711
G1 X94.775 Y158.692 E31.86206
G1 X94.491 Y158.253 E31.87945
G1 X94.418 Y158.128 E31.88427
G1 X94.183 Y157.666 E31.90151
G1 X94.123 Y157.531 E31.90642
G1 X93.935 Y157.039 E31.92394
G1 X93.891 Y156.903 E31.92869
G1 X93.757 Y156.405 E31.94585
G1 X93.726 Y156.257 E31.95088
G1 X93.644 Y155.733 E31.96852
G1 X93.629 Y155.59 E31.9733
G1 X93.602 Y155.072 E31.99055
G1 X93.6 Y154.999 E31.99298
G1 X93.6 Y65.002 E34.98629
G1 X93.602 Y64.928 E34.98875
G1 X93.63 Y64.4 E35.00634
G1 X93.645 Y64.256 E35.01116
G1 X93.726 Y63.741 E35.02849
G1 X93.757 Y63.594 E35.03349
G1 X93.894 Y63.087 E35.05096
G1 X93.939 Y62.951 E35.05572
G1 X94.128 Y62.458 E35.07328
G1 X94.189 Y62.321 E35.07827
G1 X94.425 Y61.86 E35.0955
G1 X94.497 Y61.736 E35.10027
G1 X94.782 Y61.297 E35.11768
G0 F2266.7 X95.117 Y61.514
G1 F1020 X95.18 Y61.429 E35.12119
G1 X95.512 Y61.02 E35.13872
G1 X95.931 Y60.591 E35.15866
G1 X96.011 Y60.518 E35.16226
G1 X96.439 Y60.172 E35.18057
G1 X96.525 Y60.11 E35.18409
G1 X96.964 Y59.826 E35.20148
G1 X97.054 Y59.775 E35.20492
G1 X97.516 Y59.54 E35.22216
G1 X97.612 Y59.497 E35.22566
G1 X98.104 Y59.309 E35.24318
G1 X98.201 Y59.277 E35.24658
G1 X98.699 Y59.143 E35.26373
G1 X98.804 Y59.121 E35.2673
G1 X99.328 Y59.039 E35.28494
G1 X99.432 Y59.028 E35.28842
